!!!ONB: b.80 text underlying in A should be checked; b.240 truplets should be checked
!!!COM: Gaspar van Weerbeke
!!!CDT: ~1450-~1517
!!!OTL: Magnificat octavi toni
!!!AGN: Motet; Magnificat; Hymn
!!!SCT: Gas0502
!!!SCA: Gas0502
!!!voices: 4
**kern	**text	**kern	**text	**kern	**text	**kern	**text
*part4	*part4	*part3	*part3	*part2	*part2	*part1	*part1
*staff4	*staff4	*staff3	*staff3	*staff2	*staff2	*staff1	*staff1
*I"Bassus	*	*I"Tenor	*	*I"Altus	*	*I"Superius	*
*I'B	*	*I'T	*	*I'A	*	*I'S	*
*clefF4	*	*clefGv2	*	*clefGv2	*	*clefG2	*
*k[]	*	*k[]	*	*k[]	*	*k[]	*
*M3/2	*	*M3/2	*	*M3/2	*	*M3/2	*
*met(O)	*	*met(O)	*	*met(O)	*	*met(O)	*
=1	=1	=1	=1	=1	=1	=1	=1
2.c	A-	2.c	A-	2g	A-	(2.cc)	A-
.	.	.	.	4e	-ni-	.	.
4c	-ni-	4c	-ni-	4c	.	4cc	-ni-
2A	-ma	4e	-ma	2c	-ma	2cc	-ma
.	.	4f	.	.	.	.	.
=2	=2	=2	=2	=2	=2	=2	=2
1G	me-	4.g	me-	2d	me-	1b	me-
.	.	8f	.	.	.	.	.
.	.	2d	.	4B	.	.	.
.	.	.	.	4G	.	.	.
2C	-a	2e	-a	2g	-a	2cc	-a
=3	=3	=3	=3	=3	=3	=3	=3
4F	do-	2f	do-	2c	do-	2a	do-
4A	.	.	.	.	.	.	.
4G	.	4g	.	4d	.	4b	.
4A	.	4e	.	4c	.	4cc	.
4D	.	4f	.	4A	.	4.dd	.
[4G	.	[4d	.	4B	.	.	.
.	.	.	.	.	.	8cc	.
=4	=4	=4	=4	=4	=4	=4	=4
8GL]	.	4d]	.	2G	.	8bL	.
8F	.	.	.	.	.	8aJ	.
8E	.	2e	.	.	.	2g	.
8DJ	.	.	.	.	.	.	.
4C	.	.	.	4.c	.	.	.
2F	.	4c	.	.	.	2a	.
.	.	.	.	8B	.	.	.
.	.	2d	.	4A	.	.	.
[4G	.	.	.	4G	.	4b	.
!!LO:LB:g=original
=5	=5	=5	=5	=5	=5	=5	=5
4G]	.	4B	.	4B	.	4g	.
4F	.	4c	.	2A	.	2a	.
4D	.	4d	.	.	.	.	.
4G	.	4B	.	2.d	-mi-	2g	-mi-
2D	-mi-	2A	-mi-	.	.	.	.
.	.	.	.	.	.	4f#i	.
=6	=6	=6	=6	=6	=6	=6	=6
1G	-num.	1G	-num.	1d	-num.	1g	-num.
=7||	=7||	=7||	=7||	=7||	=7||	=7||	=7||
*M2/2	*	*M2/2	*	*M2/2	*	*M2/2	*
*met(C|)	*	*met(C|)	*	*met(C|)	*	*met(C|)	*
1r	.	1r	.	1G	Et	1r	.
=8	=8	=8	=8	=8	=8	=8	=8
1r	.	1r	.	1A	ex-	1r	.
=9	=9	=9	=9	=9	=9	=9	=9
1r	.	1r	.	4.G	-sul-	1g	Et
.	.	.	.	8A	.	.	.
.	.	.	.	4B	.	.	.
.	.	.	.	[4c	.	.	.
=10	=10	=10	=10	=10	=10	=10	=10
1r	.	1r	.	4c]	.	1a	ex-
.	.	.	.	2f	.	.	.
.	.	.	.	8eL	.	.	.
.	.	.	.	8dJ	.	.	.
!!LO:LB:g=original
=11	=11	=11	=11	=11	=11	=11	=11
1r	.	1r	.	4e	.	4.g	-sul-
.	.	.	.	4.g	.	.	.
.	.	.	.	.	.	8a	.
.	.	.	.	.	.	4b	.
.	.	.	.	8f	.	.	.
.	.	.	.	4e	.	4cc	.
=12	=12	=12	=12	=12	=12	=12	=12
1r	.	1r	.	4d	.	4b	.
.	.	.	.	4c	.	2cc	-ta-
.	.	.	.	2d	-ta-	.	.
.	.	.	.	.	.	4b	.
=13	=13	=13	=13	=13	=13	=13	=13
1r	.	1r	.	1c	-vit	1cc	-vit
=14	=14	=14	=14	=14	=14	=14	=14
1r	.	1r	.	2r	.	2.cc	spi-
.	.	.	.	2f	spi-	.	.
.	.	.	.	.	.	8bL	.
.	.	.	.	.	.	8aJ	.
=15	=15	=15	=15	=15	=15	=15	=15
*	*	*	*	*lig	*	*	*
1r	.	1r	.	2e	-ri-	2g	.
.	.	.	.	2f	.	2cc	.
*	*	*	*	*Xlig	*	*	*
=16	=16	=16	=16	=16	=16	=16	=16
*	*	*	*	*	*	*lig	*
1r	.	1r	.	2.g	.	2b	-ri-
.	.	.	.	.	.	2cc	.
.	.	.	.	8fL	.	.	.
.	.	.	.	8eJ	.	.	.
!!LO:LB:g=original
=17	=17	=17	=17	=17	=17	=17	=17
*	*	*	*	*	*	*col	*
1r	.	1r	.	2d	-tus,	2.dd	.
*	*	*	*	*	*edit	*	*
.	.	.	.	2g	spi-	.	.
*	*	*	*	*	*	*Xlig	*
.	.	.	.	.	.	8ccL	.
.	.	.	.	.	.	8bJ	.
*	*	*	*	*	*	*Xcol	*
=18	=18	=18	=18	=18	=18	=18	=18
1r	.	1r	.	4f	.	2a	-tus,
.	.	.	.	2d	.	.	.
*	*	*	*	*	*	*	*edit
.	.	.	.	.	.	[2dd	spi-
.	.	.	.	[4B	.	.	.
=19	=19	=19	=19	=19	=19	=19	=19
1r	.	1r	.	4B]	.	4dd]	.
.	.	.	.	2G	-ri-	4cc	.
.	.	.	.	.	.	4b	.
.	.	.	.	4F	.	4a	.
=20	=20	=20	=20	=20	=20	=20	=20
1r	.	1r	.	4G	-tus	4g	.
*	*	*	*	*	*Xedit	*	*
.	.	.	.	2A	me-	4f	.
.	.	.	.	.	.	4e	.
.	.	.	.	4B	.	4d	.
=21	=21	=21	=21	=21	=21	=21	=21
1r	.	1r	.	4.c	.	4c	.
.	.	.	.	.	.	2cc	-ri-
.	.	.	.	8d	.	.	.
.	.	.	.	4e	.	.	.
.	.	.	.	4f	.	[4dd	-tus
=22	=22	=22	=22	=22	=22	=22	=22
1r	.	1r	.	4g	.	4dd]	.
*	*	*	*	*	*	*	*Xedit
.	.	.	.	4e	.	2cc	me-
.	.	.	.	2d	.	.	.
.	.	.	.	.	.	4b	.
!!LO:PB:g=original
=23	=23	=23	=23	=23	=23	=23	=23
1r	.	1r	.	[1c	-us	1cc	-us
=24	=24	=24	=24	=24	=24	=24	=24
1r	.	1r	.	1c]	.	1r	.
=25	=25	=25	=25	=25	=25	=25	=25
1r	.	1r	.	1r	.	2.cc	in
.	.	.	.	.	.	4dd	.
=26	=26	=26	=26	=26	=26	=26	=26
1r	.	1r	.	2c	in	2.ee	de-
.	.	.	.	8cL	de-	.	.
.	.	.	.	8d	.	.	.
.	.	.	.	8e	.	8ddL	.
.	.	.	.	8fJ	.	8ccJ	.
=27	=27	=27	=27	=27	=27	=27	=27
*	*	*	*	*	*	*lig	*
1r	.	1r	.	4g	.	2b	-o
.	.	.	.	2G	-o	.	.
.	.	.	.	.	.	2g	.
*	*	*	*	*	*edit	*	*
.	.	.	.	[4g	sa-	.	.
*	*	*	*	*	*	*Xlig	*
=28	=28	=28	=28	=28	=28	=28	=28
1r	.	1r	.	4g]	.	4b	sa-
.	.	.	.	4e	-lu-	2cc	-lu-
.	.	.	.	2f	-ta-	.	.
.	.	.	.	.	.	8bL	.
.	.	.	.	.	.	8aJ	.
!!LO:LB:g=original
=29	=29	=29	=29	=29	=29	=29	=29
1r	.	1r	.	2g	-ri,	2g	-ta-
.	.	.	.	4r	.	2a	.
.	.	.	.	[4c	sa-	.	.
=30	=30	=30	=30	=30	=30	=30	=30
1r	.	1r	.	4c]	.	2g	-ri,
.	.	.	.	4B	-lu-	.	.
*	*	*	*	*	*	*	*edit
.	.	.	.	2A	-ta-	2cc	sa-
=31	=31	=31	=31	=31	=31	=31	=31
1r	.	1r	.	2G	-ri,	4b	.
.	.	.	.	.	.	4g	.
.	.	.	.	4r	.	[2cc	.
*	*	*	*	*	*Xedit	*	*
.	.	.	.	[4e	sa-	.	.
=32	=32	=32	=32	=32	=32	=32	=32
1r	.	1r	.	8eL]	.	4cc]	.
.	.	.	.	8fJ	.	.	.
.	.	.	.	2g	.	4b	.
.	.	.	.	.	.	2a	.
.	.	.	.	4f	.	.	.
=33	=33	=33	=33	=33	=33	=33	=33
1r	.	1r	.	4e	.	2g	.
.	.	.	.	4.c	-lu-	.	.
.	.	.	.	.	.	2cc	-lu-
.	.	.	.	8BL	.	.	.
.	.	.	.	8A	.	.	.
.	.	.	.	8GJ	.	.	.
=34	=34	=34	=34	=34	=34	=34	=34
1r	.	1r	.	4d	.	4a	.
.	.	.	.	4G	.	4b	.
.	.	.	.	4.c	-ta-	4g	.
.	.	.	.	.	.	[4cc	-ta-
.	.	.	.	8d	.	.	.
!!LO:LB:g=original
=35	=35	=35	=35	=35	=35	=35	=35
1r	.	1r	.	8eL	.	4cc]	.
.	.	.	.	8fJ	.	.	.
.	.	.	.	4g	.	4b	.
.	.	.	.	4f	.	4a	.
.	.	.	.	4g	-ri	[4b	-ri
=36	=36	=36	=36	=36	=36	=36	=36
*	*	*	*	*lig	*	*	*
1r	.	1r	.	2G	me-	4b]	.
*	*	*	*	*	*	*	*Xedit
.	.	.	.	.	.	2g	me-
.	.	.	.	2A	.	.	.
.	.	.	.	.	.	4f#i	.
*	*	*	*	*Xlig	*	*	*
=37	=37	=37	=37	=37	=37	=37	=37
1r	.	1r	.	1G	-o.	1g	-o.
=38||	=38||	=38||	=38||	=38||	=38||	=38||	=38||
*M2/2	*	*M2/2	*	*M2/2	*	*M2/2	*
*met(C|)	*	*met(C|)	*	*met(C|)	*	*met(C|)	*
1G	Qui-	1G	Qui-	2.d	Qui-	1r	.
.	.	.	.	4e	.	.	.
=39	=39	=39	=39	=39	=39	=39	=39
2F	-a	2A	-a	2f	-a	1r	.
2E	re-	2G	re-	2g	re-	.	.
=40	=40	=40	=40	=40	=40	=40	=40
4F	.	4A	.	4f	.	1r	.
4G	.	4.B	-spe-	2d	-spe-	.	.
4E	.	.	.	.	.	.	.
.	.	8c	.	.	.	.	.
[4F	-spe-	[4d	.	4B	.	.	.
!!LO:LB:g=original
=41	=41	=41	=41	=41	=41	=41	=41
4F]	.	4d]	.	4A	.	1r	.
4E	.	2c	.	2G	.	.	.
2D	.	.	.	.	.	.	.
.	.	4B	.	4F	.	.	.
=42	=42	=42	=42	=42	=42	=42	=42
1C	-xit,	1c	-xit,	2.G	.	1g	Qui-
.	.	.	.	4E	.	.	.
=43	=43	=43	=43	=43	=43	=43	=43
*	*	*	*edit	*	*	*	*
2r	.	2c	re-	2F	-xit,	2a	-a
*	*edit	*	*	*	*	*	*
2c	re-	2e	.	2r	.	2g	re-
=44	=44	=44	=44	=44	=44	=44	=44
*	*	*	*	*	*edit	*	*
4A	.	4f	.	4c	re-	4a	.
2G	.	2g	.	4.d	-spe-	4.b	-spe-
.	.	.	.	8eL	.	8cc	.
[4D	-spe-	[4f	.	8f	.	[4dd	.
.	.	.	.	8gJ	.	.	.
=45	=45	=45	=45	=45	=45	=45	=45
4D]	.	4f]	.	4a	.	4dd]	.
4E	.	4e	.	4g	.	2cc	.
4F	.	2d	-spe-	4f	.	.	.
4G	.	.	.	4d	.	4b	.
=46	=46	=46	=46	=46	=46	=46	=46
1C	-xit	1c	-xit	1e	-xit	1cc	-xit
!!LO:LB:g=original
=47	=47	=47	=47	=47	=47	=47	=47
*	*Xedit	*	*Xedit	*	*Xedit	*	*
1F	hu-	1c	hu-	1f	hu-	1a	hu-
=48	=48	=48	=48	=48	=48	=48	=48
2E	-mi-	2c	-mi-	2g	-mi-	2g	-mi-
2C	-li-	2c	-li-	2e	-li-	2g	-li-
=49	=49	=49	=49	=49	=49	=49	=49
1F	-ta-	1c	-ta-	1f	-ta-	1a	-ta-
=50	=50	=50	=50	=50	=50	=50	=50
1C	-tem	1e	-tem	[1g	-tem	1cc	-tem
=51	=51	=51	=51	=51	=51	=51	=51
1G	an-	1d	an-	1g]	.	2.b	an-
.	.	.	.	.	.	4g	.
=52	=52	=52	=52	=52	=52	=52	=52
4.F	.	2f	.	1r	.	4.a	.
8G	.	.	.	.	.	8b	.
2A	.	2e	.	.	.	2cc	.
!!LO:PB:g=original
=53	=53	=53	=53	=53	=53	=53	=53
2B-i	.	2d	.	2.g	an-	2dd	.
[2G	-cil-	[2g	-cil-	.	.	4.b	.
.	.	.	.	4f	.	.	.
.	.	.	.	.	.	8cc	.
=54	=54	=54	=54	=54	=54	=54	=54
2G]	.	4g]	.	2d	.	2dd	.
.	.	4f	.	.	.	.	.
[2c	-le	4e	.	4.c	-cil-	[2ee	-cil-
.	.	4d	.	.	.	.	.
.	.	.	.	8d	.	.	.
=55	=55	=55	=55	=55	=55	=55	=55
2c]	.	2.c	-le	4e	.	1ee_	.
.	.	.	.	4f	.	.	.
[2C	su-	.	.	[2g	.	.	.
.	.	4B	.	.	.	.	.
=56	=56	=56	=56	=56	=56	=56	=56
2C]	.	2c	.	1g]	.	2ee]	.
2G	.	2B	.	.	.	[2dd	-le
=57	=57	=57	=57	=57	=57	=57	=57
*	*	*lig	*	*	*	*	*
2A	.	2c	su-	2f	.	4dd]	.
.	.	.	.	.	.	4cc	.
2c	.	2e	.	4e	.	[2cc	su-
.	.	.	.	[4g	-le	.	.
=58	=58	=58	=58	=58	=58	=58	=58
1G	.	1d	.	4g]	.	2cc]	.
*	*	*	*	*	*edit	*	*
*	*	*	*	*col	*	*	*
.	.	.	.	4.g	su-	.	.
.	.	.	.	.	.	2b	.
.	.	.	.	8fL	.	.	.
*	*	*	*	*Xcol	*	*	*
.	.	.	.	8e	.	.	.
.	.	.	.	8dJ	.	.	.
*	*	*Xlig	*	*	*	*	*
!!LO:LB:g=original
=59	=59	=59	=59	=59	=59	=59	=59
[1C	-e:	[1c	-e:	1e	-e:	1cc	-e:
=60	=60	=60	=60	=60	=60	=60	=60
*	*	*	*	*	*Xedit	*	*
1C]	.	1c]	.	1c	ec-	1r	.
=61	=61	=61	=61	=61	=61	=61	=61
2r	.	1r	.	2B	-ce	1r	.
[2F	ec-	.	.	2c	e-	.	.
=62	=62	=62	=62	=62	=62	=62	=62
2F]	.	1r	.	2A	-nim	1r	.
2E	-ce	.	.	4B	ex	.	.
.	.	.	.	[4c	hoc	.	.
=63	=63	=63	=63	=63	=63	=63	=63
2F	e-	1r	.	4c]	.	1r	.
.	.	.	.	2d	be-	.	.
4D	-nim	.	.	.	.	.	.
[4G	ex	.	.	4B	.	.	.
=64	=64	=64	=64	=64	=64	=64	=64
4G]	.	1r	.	2A	-a-	1r	.
4F#i	.	.	.	.	.	.	.
2G	hoc	.	.	2G	-tam,	.	.
!!LO:LB:g=original
=65	=65	=65	=65	=65	=65	=65	=65
*	*	*	*	*	*edit	*	*
1r	.	1r	.	1A	ec-	1cc	ec-
=66	=66	=66	=66	=66	=66	=66	=66
1r	.	1f	ec-	2F	-ce	2cc	-ce
.	.	.	.	[2A	e-	[2cc	e-
=67	=67	=67	=67	=67	=67	=67	=67
1r	.	2f	-ce	4A]	.	2cc]	.
.	.	.	.	4B	-nim	.	.
.	.	2e	e-	2c	ex	2cc	-nim
=68	=68	=68	=68	=68	=68	=68	=68
2D	be-	2f	-nim	2d	hoc	2a	ex
*	*	*	*	*	*	*lig	*
2G	-a-	2d	ex	2r	.	2b	hoc
=69	=69	=69	=69	=69	=69	=69	=69
2E	.	2e	hoc	2c	be-	2cc	.
*	*	*	*	*	*	*Xlig	*
[2D	-tam,	2f	.	[2d	-a-	2a	be-
=70	=70	=70	=70	=70	=70	=70	=70
2D]	.	2d	be-	4d]	.	2.dd	-a-
.	.	.	.	4c	.	.	.
2r	.	[2g	-a-	4B	.	.	.
.	.	.	.	4A	.	4cc	.
!!LO:LB:g=original
=71	=71	=71	=71	=71	=71	=71	=71
*	*	*	*	*lig	*	*	*
*	*edit	*	*	*	*	*	*
2G	be-	4g]	.	2G	-tam	4b	.
.	.	4f	.	.	.	4a	.
2C	-a-	2e	.	2c	.	2g	-tam
*	*	*	*	*Xlig	*	*	*
=72	=72	=72	=72	=72	=72	=72	=72
*	*	*	*	*lig	*	*	*
*	*	*	*	*	*Xedit	*	*
2G	.	2d	.	2B	me	2b	me
[2A	-tam	[2c	-tam	2e	.	2cc	.
*	*	*	*	*Xlig	*	*	*
=73	=73	=73	=73	=73	=73	=73	=73
2A]	.	2c]	.	2c	di-	2.a	di-
*	*Xedit	*	*	*	*	*	*
4.F	me	4.A	me	4.f	.	.	.
.	.	.	.	.	.	8gL	.
8G	.	8B	.	8e	.	8fJ	.
=74	=74	=74	=74	=74	=74	=74	=74
4.A	.	2c	.	2c	-cent	2e	.
8G	.	.	.	.	.	.	.
4F	.	4d	.	4r	.	4f	.
4E	.	[4e	.	[4c	om-	[4g	.
=75	=75	=75	=75	=75	=75	=75	=75
2C	di-	4e]	.	4c]	.	4g]	.
.	.	2c	di-	2.g	.	4e	.
2G	-cent	.	.	.	.	2d	.
.	.	4B	.	.	.	.	.
=76	=76	=76	=76	=76	=76	=76	=76
4A	om-	1c	-cent	2e	-nes	2c	-cent
4.c	.	.	.	.	.	.	.
.	.	.	.	4c	ge-	2cc	o-
8B	.	.	.	.	.	.	.
[4A	.	.	.	[4e	-ne-	.	.
!!LO:PB:g=original
=77	=77	=77	=77	=77	=77	=77	=77
4A]	.	2r	.	8eL]	.	4b	.
.	.	.	.	8fJ	.	.	.
2G	.	.	.	4g	.	4g	.
.	.	2c	om-	4e	-ra-	2a	-mnes
4F	.	.	.	4f	.	.	.
=78	=78	=78	=78	=78	=78	=78	=78
4G	.	4B	.	4d	-ti-	2g	ge-
4E	.	4G	.	4c	.	.	.
2D	-nes	2A	.	2d	-o-	2f	-ne-
=79	=79	=79	=79	=79	=79	=79	=79
4r	.	4G	-nes	4B	-nes,	2g	-ra-
4G	ge-	4B	ge-	4G	.	.	.
4F	-ne-	4c	-ne-	2r	.	4a	-ti-
[4D	-ra-	[4d	-ra-	.	.	[4b	-o-
=80	=80	=80	=80	=80	=80	=80	=80
4D]	.	4d]	.	4r	.	4b]	.
2C	.	2e	.	2g	ge-	4cc	.
.	.	.	.	.	-ne-	4g	.
4F	-ti-	4c	-ti-	[4f	-ra-	[4a	.
=81	=81	=81	=81	=81	=81	=81	=81
4D	-o-	4d	-o-	4f]	.	4a]	.
4G	.	4B	.	2d	-ti-	2g	.
2D	.	2A	.	.	.	.	.
.	.	.	.	4d	-o-	4f#i	.
=82	=82	=82	=82	=82	=82	=82	=82
1G	-nes.	1G	-nes.	1d	-nes.	1g	-nes.
!!LO:LB:g=original
=83||	=83||	=83||	=83||	=83||	=83||	=83||	=83||
*M3/2	*	*M3/2	*	*M3/2	*	*M3/2	*
*met(O)	*	*met(O)	*	*met(O)	*	*met(O)	*
1.r	.	2.G	Qui-	2.g	Qui-	1.r	.
.	.	4A	.	4e	.	.	.
.	.	2B	-a	2d	-a	.	.
=84	=84	=84	=84	=84	=84	=84	=84
1.r	.	4c	fe-	4e	fe-	2.g	Qui-
.	.	2e	.	2c	.	.	.
.	.	4f	.	8BL	.	4a	.
.	.	.	.	8AJ	.	.	.
.	.	2g	.	2G	-cit,	2b	-a
=85	=85	=85	=85	=85	=85	=85	=85
*	*	*	*	*	*edit	*	*
1.r	.	2e	.	2A	fe-	2cc	fe-
.	.	1e	-cit	4G	.	4b	.
.	.	.	.	4A	.	4cc	.
.	.	.	.	4G	.	4b	.
.	.	.	.	[4A	.	[4cc	.
=86	=86	=86	=86	=86	=86	=86	=86
1.r	.	4.e	mi-	4A]	.	4cc]	.
.	.	.	.	8GL	.	8bL	.
.	.	8f	.	8FJ	.	8aJ	.
.	.	4g	.	4E	.	4g	.
.	.	4c	.	4A	.	4a	.
.	.	4B	.	2G	-cit	[2b	-cit
.	.	[4d	.	.	.	.	.
!!LO:LB:g=original
=87	=87	=87	=87	=87	=87	=87	=87
*	*	*	*	*	*Xedit	*	*
1.r	.	8dL]	.	4.G	mi-	4b]	.
.	.	8c	.	.	.	.	.
.	.	8B	.	.	.	2dd	mi-
.	.	8AJ	.	8A	.	.	.
.	.	4G	-hi	4B	.	.	.
*	*	*	*edit	*	*	*	*
.	.	2g	ma-	4G	.	4b	.
.	.	.	.	4c	.	2a	.
.	.	4f#i	.	4d	.	.	.
=88	=88	=88	=88	=88	=88	=88	=88
1.r	.	1g	-gna,	4.e	-hi	4g	.
.	.	.	.	.	.	4.c	.
.	.	.	.	8d	.	.	.
.	.	.	.	8cL	.	.	.
.	.	.	.	8BJ	.	8dL	.
.	.	.	.	4c	.	8e	.
.	.	.	.	.	.	8fJ	.
.	.	2r	.	4B	.	4g	.
.	.	.	.	4c	.	4a	.
=89	=89	=89	=89	=89	=89	=89	=89
*	*	*	*Xedit	*	*	*	*
1.r	.	2G	ma-	4.d	ma-	2b	-hi
.	.	.	.	8c	.	.	.
.	.	4F	.	4A	.	4r	.
.	.	4G	.	4B	.	4dd	ma-
.	.	2A	.	4.c	.	4cc	.
.	.	.	.	.	.	4ee	.
.	.	.	.	8B	.	.	.
=90	=90	=90	=90	=90	=90	=90	=90
1.r	.	8BL	.	4.G	.	8ddL	.
.	.	8cJ	.	.	.	8cc	.
.	.	4d	.	.	.	8b	.
.	.	.	.	8F	.	8aJ	.
.	.	4e	.	4G	.	4g	.
.	.	4c	.	4E	.	2cc	.
.	.	2d	.	4F	.	.	.
.	.	.	.	4G	.	4b	.
!!LO:LB:g=original
=91	=91	=91	=91	=91	=91	=91	=91
1.r	.	2c	-gna,	1A	-gna,	2cc	-gna,
.	.	4.c	qui	.	.	2r	.
.	.	8d	.	.	.	.	.
.	.	8eL	.	4E	qui	2cc	qui
.	.	8fJ	.	.	.	.	.
.	.	4e	.	[4A	pot-	.	.
=92	=92	=92	=92	=92	=92	=92	=92
1.r	.	4c	.	2.A]	.	4.cc	pot-
.	.	2e	pot-	.	.	.	.
.	.	.	.	.	.	8dd	.
.	.	.	.	.	.	4ee	.
.	.	4f	.	4A	-ens	4dd	.
.	.	4e	.	2A	est,	4cc	.
.	.	4f	.	.	.	4a	.
=93	=93	=93	=93	=93	=93	=93	=93
*	*	*	*	*	*edit	*	*
1.r	.	2.g	.	4.G	qui	2.b	.
.	.	.	.	8A	.	.	.
.	.	.	.	8BL	.	.	.
.	.	.	.	8cJ	.	.	.
.	.	4f	.	4d	.	4a	.
.	.	4g	.	4G	.	4b	.
.	.	4c	.	4A	.	4cc	.
=94	=94	=94	=94	=94	=94	=94	=94
1.r	.	4d	.	4B	.	4b	.
.	.	2e	.	2c	pot-	2g	.
.	.	4f	.	4F	-ens	2cc	-ens
.	.	2d	-ens	2G	est:	.	.
.	.	.	.	.	.	4b	.
!!LO:LB:g=original
=95	=95	=95	=95	=95	=95	=95	=95
1.r	.	1c	est:	2r	.	1cc	est:
*	*	*	*	*	*Xedit	*	*
.	.	.	.	2.g	et	.	.
.	.	2r	.	.	.	2r	.
.	.	.	.	[4e	san-	.	.
=96	=96	=96	=96	=96	=96	=96	=96
1.r	.	2.g	et	4e]	.	2r	.
.	.	.	.	4c	.	.	.
.	.	.	.	2c	-ctum	2r	.
.	.	2e	san-	.	.	.	.
*	*	*	*	*	*edit	*	*
.	.	.	.	8cL	no-	[2cc	et
.	.	.	.	8B	.	.	.
.	.	4c	.	8A	.	.	.
.	.	.	.	8GJ	.	.	.
=97	=97	=97	=97	=97	=97	=97	=97
1.r	.	2c	-ctum	1F	-men,	4cc]	.
.	.	.	.	.	.	2a	san-
.	.	4.f	no-	.	.	.	.
.	.	.	.	.	.	4f	.
.	.	8e	.	.	.	.	.
.	.	8dL	.	2r	.	2f	-ctum
.	.	8cJ	.	.	.	.	.
.	.	4d	.	.	.	.	.
=98	=98	=98	=98	=98	=98	=98	=98
1.r	.	4c	.	2F	no-	2a	no-
.	.	4A	.	.	.	.	.
.	.	4B	.	4G	.	4g	.
.	.	2d	.	4D	.	4f	.
.	.	.	.	2A	-men,	2e	-men,
.	.	4c#i	.	.	.	.	.
!!LO:PB:g=original
=99	=99	=99	=99	=99	=99	=99	=99
*	*	*	*	*	*	*	*edit
1.r	.	2d	-men,	4r	.	4d	san-
.	.	.	.	2d	san-	4f	.
*	*	*	*edit	*	*	*	*
.	.	4B	san-	.	.	4g	.
.	.	4c	.	4e	.	4a	.
*	*	*	*	*	*	*col	*
.	.	4d	.	4f	.	4.b	.
.	.	[4G	.	[4g	-ctum	.	.
.	.	.	.	.	.	8cc	.
*	*	*	*	*	*	*Xcol	*
=100	=100	=100	=100	=100	=100	=100	=100
1.r	.	4G]	.	4g]	.	2dd	-ctum
*	*	*	*	*	*Xedit	*	*
.	.	4d	.	4G	no-	.	.
.	.	4e	.	4c	.	4g	no-
.	.	4f	.	4A	.	4a	.
.	.	4g	.	4G	.	4b	.
.	.	4e	.	4A	.	4cc	.
=101	=101	=101	=101	=101	=101	=101	=101
1.r	.	4f	.	4F	.	4a	.
.	.	2d	-ctum	4.G	.	2dd	.
.	.	.	.	8AL	.	.	.
.	.	2g	no-	8B	.	4b	.
.	.	.	.	8GJ	.	.	.
.	.	.	.	2d	.	4.a	.
.	.	4f	.	.	.	.	.
.	.	.	.	.	.	8b	.
=102	=102	=102	=102	=102	=102	=102	=102
1.r	.	4e	-men	4e	.	4cc	.
.	.	4d	.	4f	.	2b	-men
*	*	*lig	*	*	*	*	*
*	*	*	*Xedit	*	*	*	*
.	.	2G	e-	8gL	-men	.	.
.	.	.	.	8f	.	.	.
*	*	*	*	*	*	*	*Xedit
.	.	.	.	8e	.	2g	e-
.	.	.	.	8dJ	.	.	.
.	.	2A	.	8dL	e-	.	.
.	.	.	.	8c#j	.	.	.
.	.	.	.	8c#j	.	4f#i	.
.	.	.	.	8BJ	.	.	.
*	*	*Xlig	*	*	*	*	*
=103	=103	=103	=103	=103	=103	=103	=103
1r	.	1G	-ius.	1d	-ius.	1g	-ius.
!!LO:LB:g=original
=104||	=104||	=104||	=104||	=104||	=104||	=104||	=104||
*M3/2	*	*M3/2	*	*M3/2	*	*M3/2	*
*met(O)	*	*met(O)	*	*met(O)	*	*met(O)	*
2G	Et	2G	Et	2B	Et	2r	.
4F	mi-	2A	mi-	4c	mi-	2r	.
4D	.	.	.	4d	.	.	.
4E	.	4G	.	4B	.	2g	Et
4C	.	[4c	-se-	[4e	-se-	.	.
=105	=105	=105	=105	=105	=105	=105	=105
2F	-se-	4c]	.	4e]	.	2a	mi-
.	.	4d	.	4A	.	.	.
2E	.	2e	-ri-	4B	.	4g	.
.	.	.	.	4G	.	2cc	-se-
4r	.	2f	.	4.A	-ri-	.	.
4D	-ri-	.	.	.	.	4dd	.
.	.	.	.	8B	.	.	.
=106	=106	=106	=106	=106	=106	=106	=106
4.C	-cor-	4e	.	4.c	-cor-	4.ee	-ri-
.	.	4.g	-cor-	.	.	.	.
8D	.	.	.	8B	.	8dd	.
4E	.	.	.	4G	.	4b	.
.	.	8f	.	.	.	.	.
4C	.	4e	.	2.g	-di-	2cc	-cor-
2G	-di-	2d	-di-	.	.	.	.
.	.	.	.	.	.	4b	-di-
=107	=107	=107	=107	=107	=107	=107	=107
1A	-a	1c	-a	2e	-a	1cc	-a
.	.	.	.	2r	.	.	.
2F	e-	2f	e-	2a	e-	2cc	e-
=108	=108	=108	=108	=108	=108	=108	=108
4C	-ius	4e	-ius	4g	-ius	4cc	-ius
2F	a	2c	a	2a	a	2cc	a
4F	pro-	4c	pro-	2.a	pro-	4cc	pro-
4F	-ge-	4A	-ge-	.	.	4cc	-ge-
4F	-ni-	4A	-ni-	.	.	4cc	-ni-
!!LO:LB:g=original
=109	=109	=109	=109	=109	=109	=109	=109
2G	-e	2G	-e	2d	-ge-	2b	-e
2G	in	4r	.	8dL	-ni-	4.b	in
.	.	.	.	8c	.	.	.
.	.	2g	in	8B	.	.	.
.	.	.	.	8AJ	.	8cc	.
4r	.	.	.	4G	-e	4dd	.
4c	pro-	4e	pro-	4g	in	4ee	.
=110	=110	=110	=110	=110	=110	=110	=110
4d	-ge-	4f	.	4f	.	2dd	pro-
4B	.	2g	-ge-	2d	pro-	.	.
4G	.	.	.	.	.	4b	.
4c	.	4e	.	4c	.	4cc	.
4B	-ni-	4d	.	2G	.	4dd	.
4G	.	[4g	.	.	.	4b	.
=111	=111	=111	=111	=111	=111	=111	=111
2D	-es,	4g]	.	2d	-ge-	2a	.
.	.	4f	.	.	.	.	.
4r	.	4e	.	4e	.	4g	.
4A	pro-	4c	.	4f	.	2cc	-ge-
2G	-ge-	2d	-ni-	2g	-ni-	.	.
.	.	.	.	.	.	4b	-ni-
=112	=112	=112	=112	=112	=112	=112	=112
2C	-ni-	1c	-es	2e	-es	2cc	-es
2F	-es	.	.	4c	ti-	2r	.
.	.	.	.	4f	.	.	.
2A	ti-	2r	.	4e	-men-	2cc	ti-
.	.	.	.	4c	.	.	.
!!LO:LB:g=original
=113	=113	=113	=113	=113	=113	=113	=113
4F	-men-	2r	.	2f	-ti-	4a	-men-
4F	-ti-	.	.	.	.	4a	-ti-
4E	-bus	2c	ti-	2g	-bus	2g	-bus
4C	.	.	.	.	.	.	.
*	*edit	*	*	*	*	*	*
2F	e-	4A	-men-	2r	.	4a	e-
.	.	4A	-ti-	.	.	4cc	.
=114	=114	=114	=114	=114	=114	=114	=114
2G	-um,	2G	-bus	2g	e-	4b	.
.	.	.	.	.	.	4dd	.
4r	.	4A	e-	4e	.	4cc	.
*	*Xedit	*	*	*	*	*	*
4F	e-	4c	.	4f	.	8bL	.
.	.	.	.	.	.	8aJ	.
4G	.	4B	.	4d	.	2g	.
4E	.	[4c	.	4e	.	.	.
=115	=115	=115	=115	=115	=115	=115	=115
2F	.	4c]	.	4c	.	4a	.
.	.	8BL	.	4f	.	4cc	.
.	.	8AJ	.	.	.	.	.
*	*	*	*	*	*	*col	*
4G	.	2G	.	4d	.	4.b	.
4E	.	.	.	4e	.	.	.
.	.	.	.	.	.	8g	.
*	*	*	*	*	*	*Xcol	*
4D	.	2d	.	4f	.	4a	.
4G	.	.	.	[4g	.	4b	.
=116	=116	=116	=116	=116	=116	=116	=116
4C	.	4e	.	4g]	.	4cc	.
*	*	*	*	*	*	*col	*
4G	.	2d	.	4G	.	4.b	.
4F	.	.	.	4A	.	.	.
.	.	.	.	.	.	8a	.
*	*	*	*	*	*	*Xcol	*
4G	.	4B	.	4B	.	2g	.
2D	.	2A	.	2d	.	.	.
.	.	.	.	.	.	4f#i	.
=117	=117	=117	=117	=117	=117	=117	=117
1G	-um.	1G	-um.	1d	-um.	1g	-um.
!!LO:PB:g=original
=118||	=118||	=118||	=118||	=118||	=118||	=118||	=118||
*M2/2	*	*M2/2	*	*M2/2	*	*M2/2	*
*met(C|)	*	*met(C|)	*	*met(C|)	*	*met(C|)	*
1r	.	1r	.	2G	Fe-	1r	.
.	.	.	.	4.G	-cit	.	.
.	.	.	.	8A	.	.	.
=119	=119	=119	=119	=119	=119	=119	=119
1r	.	[1G	Fe-	8BL	.	1r	.
.	.	.	.	8cJ	.	.	.
.	.	.	.	2B	.	.	.
.	.	.	.	8AL	po-	.	.
.	.	.	.	8GJ	.	.	.
=120	=120	=120	=120	=120	=120	=120	=120
1r	.	1G]	.	8BL	-ten-	1r	.
.	.	.	.	8c	.	.	.
.	.	.	.	8d	.	.	.
.	.	.	.	8eJ	.	.	.
.	.	.	.	4d	.	.	.
*	*	*	*	*col	*	*	*
.	.	.	.	[4e	.	.	.
=121	=121	=121	=121	=121	=121	=121	=121
1r	.	4A	.	8eL]	.	1r	.
.	.	.	.	8dJ	.	.	.
*	*	*	*	*Xcol	*	*	*
.	.	4G	.	2g	.	.	.
.	.	2A	-cit	.	.	.	.
.	.	.	.	4f	.	.	.
=122	=122	=122	=122	=122	=122	=122	=122
*	*	*lig	*	*	*	*	*
1r	.	1G	po-	4e	.	1r	.
.	.	.	.	8dL	-ti-	.	.
.	.	.	.	8cJ	.	.	.
.	.	.	.	2B	-am	.	.
=123	=123	=123	=123	=123	=123	=123	=123
*	*	*	*	*	*	*col	*
4.C	po-	1c	.	1r	.	4.e	po-
8D	.	.	.	.	.	8f	.
*	*	*	*	*	*	*Xcol	*
4E	.	.	.	.	.	4g	.
[4F	-ten-	.	.	.	.	[4a	-ten-
*	*	*Xlig	*	*	*	*	*
!!LO:LB:g=original
=124	=124	=124	=124	=124	=124	=124	=124
8FL]	.	[1c	-ten-	1r	.	8aL]	.
8E	.	.	.	.	.	8g	.
8F	.	.	.	.	.	8a	.
8GJ	.	.	.	.	.	8bJ	.
4A	.	.	.	.	.	4cc	.
[4F	.	.	.	.	.	[4a	.
=125	=125	=125	=125	=125	=125	=125	=125
4F]	.	2c]	.	2r	.	4a]	.
8EL	-ti-	.	.	.	.	8gL	-ti-
8DJ	.	.	.	.	.	8fJ	.
2C	-am	2c	-ti-	4r	.	2e	-am
.	.	.	.	4g	in	.	.
=126	=126	=126	=126	=126	=126	=126	=126
4r	.	1c	-am	4e	bra-	1r	.
4E	in	.	.	4g	.	.	.
4F	bra-	.	.	4a	.	.	.
4E	-chi-	.	.	4g	-chi-	.	.
=127	=127	=127	=127	=127	=127	=127	=127
2C	-o,	1r	.	2e	-o,	4r	.
.	.	.	.	.	.	4g	in
4r	.	.	.	2r	.	4e	bra-
*	*edit	*	*	*	*	*	*
4E	in	.	.	.	.	4g	.
=128	=128	=128	=128	=128	=128	=128	=128
4F	bra-	[1c	in	1r	.	4a	.
4E	.	.	.	.	.	4g	-chi-
4.A	.	.	.	.	.	2e	-o,
8G	.	.	.	.	.	.	.
=129	=129	=129	=129	=129	=129	=129	=129
*	*	*	*	*	*	*	*edit
*	*	*	*	*	*	*col	*
4.E	-chi-	2c]	.	1r	.	4.g	bra-
8F	.	.	.	.	.	8a	.
*	*	*	*	*	*	*Xcol	*
2G	-o,	2B	.	.	.	8bL	.
.	.	.	.	.	.	8ccJ	.
.	.	.	.	.	.	4dd	-chi-
!!LO:LB:g=original
=130	=130	=130	=130	=130	=130	=130	=130
*	*	*lig	*	*	*	*	*
*	*	*	*	*	*edit	*	*
1r	.	1c	bra-	4.e	bra-	2g	-o,
.	.	.	.	8f	.	.	.
.	.	.	.	4g	.	2r	.
*	*	*	*	*col	*	*	*
.	.	.	.	[4a	-chi-	.	.
=131	=131	=131	=131	=131	=131	=131	=131
2r	.	[1d	.	8aL]	.	1r	.
.	.	.	.	8g	.	.	.
*	*	*	*	*Xcol	*	*	*
.	.	.	.	8f	.	.	.
.	.	.	.	8eJ	.	.	.
4.D	bra-	.	.	2f	-o	.	.
8E	.	.	.	.	.	.	.
=132	=132	=132	=132	=132	=132	=132	=132
4F	.	2d]	.	1r	.	4a	bra-
*	*	*Xlig	*	*	*	*	*
4G	.	.	.	.	.	4b	.
4F	-chi-	2d	-chi-	.	.	4a	.
*	*	*	*	*	*	*col	*
4G	.	.	.	.	.	[4dd	-chi-
=133	=133	=133	=133	=133	=133	=133	=133
2D	-o	[1d	-o	2r	.	8ddL]	.
.	.	.	.	.	.	8cc	.
*	*	*	*	*	*	*Xcol	*
.	.	.	.	.	.	8b	.
.	.	.	.	.	.	8aJ	.
*	*	*	*	*	*Xedit	*	*
2r	.	.	.	4.G	su-	2b	-o
.	.	.	.	8A	.	.	.
=134	=134	=134	=134	=134	=134	=134	=134
2r	.	1d]	.	4B	.	1r	.
.	.	.	.	2c	.	.	.
*	*Xedit	*	*	*	*	*	*
2G	su-	.	.	.	.	.	.
.	.	.	.	4B	.	.	.
=135	=135	=135	=135	=135	=135	=135	=135
4E	.	1r	.	2c	.	1r	.
4.F	.	.	.	.	.	.	.
.	.	.	.	4d	.	.	.
8E	.	.	.	.	.	.	.
[4C	.	.	.	[4e	.	.	.
!!LO:LB:g=original
=136	=136	=136	=136	=136	=136	=136	=136
4C]	.	1r	.	4e]	.	2r	.
4D	.	.	.	4f	.	.	.
*	*	*	*	*	*	*	*Xedit
4C	.	.	.	4e	.	2cc	su-
4E	.	.	.	8dL	.	.	.
.	.	.	.	8cJ	.	.	.
=137	=137	=137	=137	=137	=137	=137	=137
4D	.	1r	.	4B	.	4dd	.
2C	.	.	.	4c	.	2ee	.
*	*	*	*	*col	*	*	*
.	.	.	.	4.A	.	.	.
4D	.	.	.	.	.	4ff	.
.	.	.	.	8B	.	.	.
*	*	*	*	*Xcol	*	*	*
=138	=138	=138	=138	=138	=138	=138	=138
*	*edit	*	*	*	*	*	*
2C	-o,	2c	su-	4c	.	4ee	.
.	.	.	.	4.G	.	8ddL	.
.	.	.	.	.	.	8ccJ	.
2G	su-	4d	.	.	.	2b	.
.	.	.	.	8A	.	.	.
.	.	[4e	.	4B	.	.	.
=139	=139	=139	=139	=139	=139	=139	=139
4E	.	4e]	.	4G	.	4cc	.
4D	.	4f	.	4A	.	2dd	.
4G	.	[2g	.	4G	-o,	.	.
*	*	*	*	*	*edit	*	*
4C	.	.	.	[4g	su-	[4ee	.
=140	=140	=140	=140	=140	=140	=140	=140
2c	.	4g]	.	2g]	.	8eeL]	.
.	.	.	.	.	.	8ddJ	.
.	.	4e	.	.	.	2cc	.
*lig	*	*	*	*	*	*	*
*	*Xedit	*	*	*	*	*	*
2G	-o:	2d	.	2g	-o:	.	.
.	.	.	.	.	.	4b	.
!!LO:PB:g=original
=141	=141	=141	=141	=141	=141	=141	=141
*	*	*	*	*	*Xedit	*	*
*	*	*	*	*lig	*	*	*
2C	.	[1c	-o:	2e	di-	1cc	-o:
*Xlig	*	*	*	*	*	*	*
*	*edit	*	*	*	*	*	*
2F	di-	.	.	2c	.	.	.
*	*	*	*	*Xlig	*	*	*
=142	=142	=142	=142	=142	=142	=142	=142
4E	.	1c]	.	4G	.	2r	.
2F	-sper-	.	.	2A	-sper-	.	.
.	.	.	.	.	.	2cc	di-
8EL	.	.	.	8GL	.	.	.
8DJ	.	.	.	8FJ	.	.	.
=143	=143	=143	=143	=143	=143	=143	=143
2C	-sit,	2r	.	2G	-sit	1cc	-sper-
*	*	*	*	*	*edit	*	*
2r	.	2f	di-	8FL	su-	.	.
.	.	.	.	8G	.	.	.
.	.	.	.	8A	.	.	.
.	.	.	.	8BJ	.	.	.
=144	=144	=144	=144	=144	=144	=144	=144
1r	.	4e	.	4c	-per-	2cc	-sit
.	.	2f	-sper-	4A	.	.	.
.	.	.	.	2F	-bos,	2cc	su-
.	.	8eL	.	.	.	.	.
.	.	8dJ	.	.	.	.	.
=145	=145	=145	=145	=145	=145	=145	=145
*	*Xedit	*	*	*	*	*	*
2F	di-	1c	-sit	2r	.	1cc	-per-
4E	.	.	.	4r	.	.	.
*	*	*	*	*	*Xedit	*	*
[4F	-sper-	.	.	[4f	su-	.	.
=146	=146	=146	=146	=146	=146	=146	=146
8FL]	.	2c	su-	4f]	.	1cc	-bos
8GJ	.	.	.	.	.	.	.
4A	.	.	.	4e	.	.	.
4F	-sit	2A	.	4f	.	.	.
[4c	su-	.	.	[4a	-per-	.	.
=147	=147	=147	=147	=147	=147	=147	=147
4c]	.	4F	.	8aL]	.	1r	.
.	.	.	.	8gJ	.	.	.
4A	.	2c	-per-	2f	.	.	.
2G	.	.	.	.	.	.	.
.	.	4B	.	4e	.	.	.
!!LO:LB:g=original
=148	=148	=148	=148	=148	=148	=148	=148
1F	-per-	2c	-bos	2f	-bos	[1cc	men-
.	.	2r	.	4.c	men-	.	.
.	.	.	.	8d	.	.	.
=149	=149	=149	=149	=149	=149	=149	=149
*	*	*	*edit	*	*	*	*
1C	-bos	2.g	men-	4e	.	2cc]	.
.	.	.	.	4f	.	.	.
.	.	.	.	2g	-te,	2cc	-te
.	.	8fL	.	.	.	.	.
.	.	8eJ	.	.	.	.	.
=150	=150	=150	=150	=150	=150	=150	=150
[1G	men-	2d	-te,	4r	.	[1b	cor-
*	*	*	*	*	*edit	*	*
.	.	.	.	2g	men-	.	.
.	.	4r	.	.	.	.	.
*	*	*	*Xedit	*	*	*	*
.	.	[4g	men-	8fL	.	.	.
.	.	.	.	8eJ	.	.	.
=151	=151	=151	=151	=151	=151	=151	=151
1G]	.	4g]	.	2d	-te	1b]	.
.	.	8fL	.	.	.	.	.
.	.	8eJ	.	.	.	.	.
*	*	*	*	*	*Xedit	*	*
.	.	2d	.	2g	cor-	.	.
=152	=152	=152	=152	=152	=152	=152	=152
2A	.	1c	-te	2e	.	1cc	-dis
[2F	.	.	.	4.f	.	.	.
.	.	.	.	8e	.	.	.
=153	=153	=153	=153	=153	=153	=153	=153
2F]	.	2c	cor-	4c	.	1a	su-
.	.	.	.	4.f	.	.	.
2D	-te	4.d	.	.	.	.	.
.	.	.	.	8g	.	.	.
.	.	.	.	4a	.	.	.
.	.	8c	.	.	.	.	.
=154	=154	=154	=154	=154	=154	=154	=154
2G	cor-	8BL	.	2d	-dis,	2b	.
.	.	8AJ	.	.	.	.	.
.	.	2G	.	.	.	.	.
4E	.	.	.	2r	.	4g	.
[4F	.	[4c	.	.	.	[4a	.
!!LO:LB:g=original
=155	=155	=155	=155	=155	=155	=155	=155
*	*	*	*	*	*edit	*	*
4F]	.	4c]	.	4.A	cor-	4a]	.
4D	.	4d	.	.	.	4f	.
.	.	.	.	8B	.	.	.
2C	-dis	2e	-dis	2c	.	4g	.
.	.	.	.	.	.	4e	.
=156	=156	=156	=156	=156	=156	=156	=156
4.D	su-	4.d	su-	2A	-dis	4f	.
.	.	.	.	.	.	2a	.
8E	.	8c	.	.	.	.	.
2F	.	2A	.	2r	.	.	.
.	.	.	.	.	.	4cc	.
=157	=157	=157	=157	=157	=157	=157	=157
*	*	*	*	*	*Xedit	*	*
4G	.	4G	.	2.d	su-	4b	.
*	*	*	*	*	*	*col	*
4.D	.	4A	.	.	.	4.a	.
.	.	2d	.	.	.	.	.
8E	.	.	.	.	.	8gL	.
*	*	*	*	*	*	*Xcol	*
4F	.	.	.	4A	.	8f	.
.	.	.	.	.	.	8eJ	.
=158	=158	=158	=158	=158	=158	=158	=158
4G	.	4B	.	4B	.	4d	.
4E	.	4G	.	4c	.	2g	.
2D	.	2A	.	2d	.	.	.
.	.	.	.	.	.	4f#i	.
=159	=159	=159	=159	=159	=159	=159	=159
1G	-i.	1G	-i.	1d	-i.	1g	-i.
!!LO:LB:g=original
=160||	=160||	=160||	=160||	=160||	=160||	=160||	=160||
*M2/2	*	*M2/2	*	*M2/2	*	*M2/2	*
*met(C|)	*	*met(C|)	*	*met(C|)	*	*met(C|)	*
1r	.	1r	.	1G	De-	1r	.
=161	=161	=161	=161	=161	=161	=161	=161
1r	.	1r	.	1A	.	1r	.
=162	=162	=162	=162	=162	=162	=162	=162
1r	.	1r	.	4.G	-po-	1g	De-
.	.	.	.	8A	.	.	.
.	.	.	.	4B	.	.	.
.	.	.	.	[4c	.	.	.
=163	=163	=163	=163	=163	=163	=163	=163
1r	.	1r	.	4c]	.	1a	.
.	.	.	.	4.d	.	.	.
.	.	.	.	8c	.	.	.
.	.	.	.	4d	.	.	.
=164	=164	=164	=164	=164	=164	=164	=164
1r	.	1r	.	2e	.	4.g	-po-
.	.	.	.	.	.	8a	.
.	.	.	.	4d	.	4b	.
.	.	.	.	4e	.	[4cc	.
=165	=165	=165	=165	=165	=165	=165	=165
1r	.	1r	.	8fL	.	4cc]	.
.	.	.	.	8e	.	.	.
.	.	.	.	8d	.	4.dd	.
.	.	.	.	8cJ	.	.	.
.	.	.	.	4.B	-su-	.	.
.	.	.	.	.	.	8cc	.
.	.	.	.	.	.	4dd	.
.	.	.	.	8A	.	.	.
!!LO:LB:g=original
=166	=166	=166	=166	=166	=166	=166	=166
*	*	*	*	*	*edit	*	*
1r	.	1r	.	4c	-it,	2ee	.
.	.	.	.	4e	de-	.	.
.	.	.	.	4f	.	4dd	.
.	.	.	.	4g	.	4ee	.
=167	=167	=167	=167	=167	=167	=167	=167
1r	.	1r	.	8aL	-po-	8ffL	.
.	.	.	.	8g	.	8ee	.
.	.	.	.	8f	.	8dd	.
.	.	.	.	8eJ	.	8ccJ	.
.	.	.	.	2d	-su-	4.b	-su-
.	.	.	.	.	.	8a	.
=168	=168	=168	=168	=168	=168	=168	=168
*	*	*	*	*	*Xedit	*	*
1r	.	1r	.	[1c	-it	2cc	-it
.	.	.	.	.	.	2r	.
=169	=169	=169	=169	=169	=169	=169	=169
1r	.	1r	.	1c]	.	2g	po-
.	.	.	.	.	.	2a	.
=170	=170	=170	=170	=170	=170	=170	=170
1r	.	1r	.	2r	.	4g	.
.	.	.	.	.	.	2e	.
.	.	.	.	2g	po-	.	.
.	.	.	.	.	.	8dL	.
.	.	.	.	.	.	8cJ	.
!!LO:PB:g=original
=171	=171	=171	=171	=171	=171	=171	=171
1r	.	1r	.	2a	.	2f	.
.	.	.	.	4g	.	4e	.
.	.	.	.	[4e	.	[4g	.
=172	=172	=172	=172	=172	=172	=172	=172
1r	.	1r	.	4e]	.	4g]	.
.	.	.	.	8dL	.	8fL	.
.	.	.	.	8cJ	.	8eJ	.
.	.	.	.	2f	.	2d	.
=173	=173	=173	=173	=173	=173	=173	=173
1r	.	1r	.	4e	.	4c	.
.	.	.	.	2g	.	2e	.
.	.	.	.	8fL	.	[4c	-ten-
.	.	.	.	8eJ	.	.	.
=174	=174	=174	=174	=174	=174	=174	=174
1r	.	1r	.	2d	.	4c]	.
.	.	.	.	.	.	4B	.
.	.	.	.	4c	.	2c	-tes
.	.	.	.	[4e	.	.	.
=175	=175	=175	=175	=175	=175	=175	=175
1r	.	1r	.	4e]	.	4r	.
.	.	.	.	2c	-ten-	4g	de
.	.	.	.	.	.	4a	.
.	.	.	.	4B	.	4b	.
!!LO:LB:g=original
=176	=176	=176	=176	=176	=176	=176	=176
1r	.	1r	.	2c	-tes	4g	.
.	.	.	.	.	.	2cc	se-
.	.	.	.	2d	de	.	.
.	.	.	.	.	.	4b	.
=177	=177	=177	=177	=177	=177	=177	=177
1r	.	1r	.	4.c	se-	4cc	.
.	.	.	.	.	.	2ee	.
.	.	.	.	8B	.	.	.
.	.	.	.	4c	.	.	.
.	.	.	.	4G	.	[4dd	.
=178	=178	=178	=178	=178	=178	=178	=178
1r	.	1r	.	2c	.	4dd]	.
.	.	.	.	.	.	2cc	.
.	.	.	.	2d	.	.	.
.	.	.	.	.	.	4b	.
=179	=179	=179	=179	=179	=179	=179	=179
1r	.	1r	.	2c	.	1cc	-de,
.	.	.	.	4e	.	.	.
.	.	.	.	[4f	.	.	.
=180	=180	=180	=180	=180	=180	=180	=180
1r	.	1r	.	4f]	.	2r	.
.	.	.	.	8eL	.	.	.
.	.	.	.	8dJ	.	.	.
.	.	.	.	2c	-de,	[2cc	et
=181	=181	=181	=181	=181	=181	=181	=181
1r	.	1r	.	1r	.	4cc]	.
.	.	.	.	.	.	2a	ex-
.	.	.	.	.	.	8gL	.
.	.	.	.	.	.	8fJ	.
!!LO:LB:g=original
=182	=182	=182	=182	=182	=182	=182	=182
1r	.	1r	.	2.c	et	4.e	.
.	.	.	.	.	.	8f	.
.	.	.	.	.	.	4e	.
.	.	.	.	[4A	ex-	4f	.
=183	=183	=183	=183	=183	=183	=183	=183
1r	.	1r	.	4A]	.	4e	.
.	.	.	.	8GL	.	2a	-al-
.	.	.	.	8FJ	.	.	.
.	.	.	.	4.E	.	.	.
.	.	.	.	.	.	[4g	-ta-
.	.	.	.	8F	.	.	.
=184	=184	=184	=184	=184	=184	=184	=184
1r	.	1r	.	8GL	.	8gL]	.
.	.	.	.	8AJ	.	8fJ	.
.	.	.	.	4B	.	2g	.
.	.	.	.	4G	-al-	.	.
.	.	.	.	[4c	-ta-	4e	.
=185	=185	=185	=185	=185	=185	=185	=185
1r	.	1r	.	4c]	.	2d	-vit
.	.	.	.	4B	.	.	.
.	.	.	.	2c	-vit	2r	.
=186	=186	=186	=186	=186	=186	=186	=186
1r	.	1r	.	2r	.	4.c	hu-
.	.	.	.	.	.	8d	.
.	.	.	.	4.c	hu-	8eL	.
.	.	.	.	.	.	8fJ	.
.	.	.	.	.	.	[4g	.
.	.	.	.	8d	.	.	.
!!LO:LB:g=original
=187	=187	=187	=187	=187	=187	=187	=187
1r	.	1r	.	8eL	.	8gL]	.
.	.	.	.	8fJ	.	8aJ	.
.	.	.	.	4g	.	4b	.
.	.	.	.	4a	-mi-	4cc	.
.	.	.	.	4f	.	[4dd	.
=188	=188	=188	=188	=188	=188	=188	=188
*	*	*	*	*	*edit	*	*
1r	.	1r	.	2g	-les,	4dd]	.
.	.	.	.	.	.	4ee	.
.	.	.	.	4r	.	4dd	.
.	.	.	.	4G	hu-	4b	.
=189	=189	=189	=189	=189	=189	=189	=189
1r	.	1r	.	4A	.	4cc	.
.	.	.	.	4F	.	4.dd	.
.	.	.	.	4G	.	.	.
.	.	.	.	.	.	8ccL	.
.	.	.	.	4d	.	8b	.
.	.	.	.	.	.	8aJ	.
=190	=190	=190	=190	=190	=190	=190	=190
1r	.	1r	.	4e	.	4g	.
.	.	.	.	4c	.	4e	.
.	.	.	.	2d	.	4f	.
.	.	.	.	.	.	[4d	.
=191	=191	=191	=191	=191	=191	=191	=191
1r	.	1r	.	4B	.	4d]	.
.	.	.	.	4G	.	2g	-mi-
.	.	.	.	2A	-mi-	.	.
.	.	.	.	.	.	4f#i	.
=192	=192	=192	=192	=192	=192	=192	=192
*	*	*	*	*	*Xedit	*	*
1r	.	1r	.	1G	-les.	1g	-les.
!!LO:LB:g=original
=193||	=193||	=193||	=193||	=193||	=193||	=193||	=193||
*M3/2	*	*M3/2	*	*M3/2	*	*M3/2	*
*met(O)	*	*met(O)	*	*met(O)	*	*met(O)	*
2r	.	1.r	.	2g	E-	1.r	.
2r	.	.	.	4a	.	.	.
.	.	.	.	2g	-su-	.	.
2G	E-	.	.	.	.	.	.
.	.	.	.	4e	.	.	.
=194	=194	=194	=194	=194	=194	=194	=194
4A	.	2r	.	4f	-ri-	1.r	.
2G	-su-	.	.	4g	.	.	.
.	.	2G	E-	4.e	-en-	.	.
4E	.	.	.	.	.	.	.
.	.	.	.	8d	.	.	.
4F	-ri-	4A	-su-	4c	.	.	.
4G	.	[4G	-ri-	[4B	-tes	.	.
=195	=195	=195	=195	=195	=195	=195	=195
4E	-en-	4G]	.	4B]	.	2r	.
4C	.	2c	-en-	4e	im-	.	.
2D	.	.	.	2f	.	2r	.
.	.	4B	.	.	.	.	.
2C	-tes	4c	.	2e	.	2g	E-
.	.	4e	.	.	.	.	.
=196	=196	=196	=196	=196	=196	=196	=196
2r	.	4f	.	4d	.	4a	-su-
.	.	4g	.	4e	.	2g	-ri-
*	*edit	*	*	*	*	*	*
2C	im-	4e	.	4c	.	.	.
.	.	4c	.	4A	.	2cc	-en-
2G	-ple-	2d	.	4G	.	.	.
.	.	.	.	[4g	-ple-	4b	.
=197	=197	=197	=197	=197	=197	=197	=197
2C	-vit,	1c	-tes	2g]	.	2cc	-tes
4r	.	.	.	2e	-vit,	2ee	im-
*	*Xedit	*	*	*	*	*	*
2c	im-	.	.	.	.	.	.
.	.	4e	im-	4r	.	4.ee	-ple-
*	*	*	*	*	*edit	*	*
4A	.	4f	.	4c	im-	.	.
.	.	.	.	.	.	16ddLL	.
.	.	.	.	.	.	16ccJJ	.
!!LO:LB:g=original
=198	=198	=198	=198	=198	=198	=198	=198
2G	.	1g	-ple-	2d	-ple-	4.b	.
.	.	.	.	.	.	8cc	.
4.G	-ple-	.	.	2d	-vit,	2.dd	.
8A	.	.	.	.	.	.	.
4B	.	2g	-vit	2r	.	.	.
4c	.	.	.	.	.	4ee	.
=199	=199	=199	=199	=199	=199	=199	=199
4B	-vit	2g	bo-	2d	im-	4dd	-vit
4G	.	.	.	.	.	4b	.
*	*edit	*	*	*	*	*	*
2G	bo-	4d	.	4B	.	4dd	.
.	.	2g	.	4G	.	4b	.
*	*	*	*	*	*	*	*edit
2D	-nis,	.	.	2d	.	2a	bo-
.	.	4f#i	.	.	.	.	.
=200	=200	=200	=200	=200	=200	=200	=200
*	*	*	*edit	*	*	*	*
4r	.	1g	-nis,	8GL	-ple-	1b	-nis,
.	.	.	.	8A	.	.	.
2G	im-	.	.	8B	.	.	.
.	.	.	.	8cJ	.	.	.
.	.	.	.	4d	.	.	.
2E	.	.	.	4G	-vit	.	.
.	.	4e	im-	2r	.	4g	im-
4F	.	4c	.	.	.	[4a	.
=201	=201	=201	=201	=201	=201	=201	=201
*	*	*	*	*	*Xedit	*	*
2D	-ple-	2d	-ple-	2F	bo-	4a]	.
.	.	.	.	.	.	4b	.
2C	.	2e	.	4G	.	2cc	-ple-
.	.	.	.	4A	.	.	.
2BB-X	.	[2f	.	4.B-X	.	2dd	-vit
.	.	.	.	8c	.	.	.
=202	=202	=202	=202	=202	=202	=202	=202
*	*	*	*	*	*edit	*	*Xedit
2BB-i	-vit	4f]	.	2d	-nis,	8ddL	bo-
.	.	.	.	.	.	8cc	.
.	.	4d	.	.	.	8b-i	.
.	.	.	.	.	.	8aJ	.
2C	.	2e	-vit	4r	.	2g	.
*	*	*	*	*col	*	*	*
.	.	.	.	4.c	im-	.	.
*	*Xedit	*	*	*	*	*	*
4.C	bo-	4.g	bo-	.	.	4e	.
.	.	.	.	8dL	.	.	.
*	*	*	*	*Xcol	*	*	*
.	.	.	.	8e	.	[4g	.
8D	.	8f	.	8fJ	.	.	.
!!LO:PB:g=original
=203	=203	=203	=203	=203	=203	=203	=203
4E	.	8eL	.	4g	-ple-	4g]	.
.	.	8dJ	.	.	.	.	.
2F	.	4c	.	4f	.	4.a	.
.	.	4f	.	4a	.	.	.
.	.	.	.	.	.	8b	.
4C	.	4e	.	2.g	-vit	2cc	.
2G	.	2d	.	.	.	.	.
.	.	.	.	.	.	4b	.
=204	=204	=204	=204	=204	=204	=204	=204
*	*	*	*Xedit	*	*	*	*
1.C	-nis:	1c	-nis:	4.e	bo-	1.cc	-nis:
.	.	.	.	8f	.	.	.
.	.	.	.	4g	.	.	.
.	.	.	.	4a	.	.	.
.	.	2r	.	4g	.	.	.
.	.	.	.	[4e	.	.	.
=205	=205	=205	=205	=205	=205	=205	=205
2r	.	2c	et	4e]	.	1.r	.
.	.	.	.	2a	.	.	.
2r	.	4c	di-	.	.	.	.
.	.	4B-i	.	4g	.	.	.
*	*	*	*	*	*Xedit	*	*
2F	et	4A	.	2a	-nis:	.	.
.	.	[4d	.	.	.	.	.
=206	=206	=206	=206	=206	=206	=206	=206
4F	di-	4d]	.	1.r	.	1.r	.
4E	.	4c	.	.	.	.	.
4D	.	4d	.	.	.	.	.
2G	.	4B	.	.	.	.	.
.	.	2A	.	.	.	.	.
4F#i	.	.	.	.	.	.	.
=207	=207	=207	=207	=207	=207	=207	=207
4G	-vi-	4G	.	2r	.	2r	.
4E	.	2c	-vi-	.	.	.	.
2D	.	.	.	2f	et	2r	.
.	.	4B	.	.	.	.	.
2C	-tes	2c	-tes	2e	di-	2cc	et
=208	=208	=208	=208	=208	=208	=208	=208
*lig	*	*	*	*	*	*	*
2G	di-	1.r	.	4d	.	2b	di-
.	.	.	.	2g	-vi-	.	.
2D	.	.	.	.	.	2a	.
.	.	.	.	4f#i	.	.	.
*Xlig	*	*	*	*	*	*	*
4E	-mi-	.	.	4g	.	4g	.
4C	.	.	.	4e	.	[4cc	-vi-
!!LO:LB:g=original
=209	=209	=209	=209	=209	=209	=209	=209
2G	-sit	2g	di-	2d	.	4cc]	.
.	.	.	.	.	.	4b	.
4.C	in-	2g	-mi-	2c	-tes	2cc	-tes
8D	.	.	.	.	.	.	.
8EL	.	4g	-sit	2G	.	2b	di-
8FJ	.	.	.	.	.	.	.
4G	.	[4e	in-	.	.	.	.
=210	=210	=210	=210	=210	=210	=210	=210
*lig	*	*	*	*	*	*	*
2A	-a-	4e]	.	4r	.	2cc	-mi-
.	.	2f	.	2c	di-	.	.
2F	.	.	.	.	.	4a	.
.	.	2d	.	4A	-mi-	4.dd	-sit
*Xlig	*	*	*	*	*	*	*
*lig	*	*	*	*	*	*	*
2G	.	.	.	4B	.	.	.
.	.	.	.	.	.	8ccL	.
.	.	[4e	.	[4G	-sit	8b	.
.	.	.	.	.	.	8aJ	.
=211	=211	=211	=211	=211	=211	=211	=211
2E	.	4e]	.	4G]	.	4g	.
*	*	*	*	*	*	*col	*
*	*	*lig	*	*	*	*	*
.	.	2c	.	4G	in-	4.cc	.
*Xlig	*	*	*	*	*	*	*
*lig	*	*	*	*	*	*	*
2F	.	.	.	4A	.	.	.
.	.	.	.	.	.	8bL	.
*	*	*	*	*	*	*Xcol	*
.	.	2d	.	4F	.	8a	.
.	.	.	.	.	.	8gJ	.
2D	.	.	.	4A	.	4.f	.
*Xlig	*	*Xlig	*	*	*	*	*
*	*	*	*	*col	*	*	*
.	.	[4B	.	[4d	.	.	.
.	.	.	.	.	.	8g	.
=212	=212	=212	=212	=212	=212	=212	=212
4G	.	4B]	.	8dL]	.	4b-j	.
.	.	.	.	8eJ	.	.	.
*	*	*	*	*Xcol	*	*	*
4F	.	4c	.	2f	.	2a	in-
4D	.	4d	.	.	.	.	.
4G	.	4B	.	2.d	-a-	2g	-a-
2D	.	2A	-a-	.	.	.	.
.	.	.	.	.	.	4f#i	.
=213	=213	=213	=213	=213	=213	=213	=213
1G	-nes.	1G	-nes.	1d	-nes.	1g	-nes.
!!LO:LB:g=original
=214||	=214||	=214||	=214||	=214||	=214||	=214||	=214||
*M2/2	*	*M2/2	*	*M2/2	*	*M2/2	*
*met(C|)	*	*met(C|)	*	*met(C|)	*	*met(C|)	*
1r	.	1r	.	2G	Sus-	1r	.
.	.	.	.	4.G	-ce-	.	.
.	.	.	.	8A	.	.	.
=215	=215	=215	=215	=215	=215	=215	=215
1r	.	1r	.	4B	.	2g	Sus-
.	.	.	.	4c	.	.	.
.	.	.	.	4G	.	4.g	-ce-
.	.	.	.	4c	.	.	.
.	.	.	.	.	.	8a	.
=216	=216	=216	=216	=216	=216	=216	=216
1r	.	1r	.	4B	.	4b	.
.	.	.	.	2e	.	4cc	.
.	.	.	.	.	.	4g	.
.	.	.	.	8dL	.	4cc	.
.	.	.	.	8cJ	.	.	.
=217	=217	=217	=217	=217	=217	=217	=217
1r	.	1r	.	4d	.	4b	.
.	.	.	.	2c	.	2ee	.
.	.	.	.	8BL	.	8ddL	.
.	.	.	.	8AJ	.	8ccJ	.
=218	=218	=218	=218	=218	=218	=218	=218
1r	.	1r	.	4G	.	4dd	.
.	.	.	.	4A	.	2cc	.
.	.	.	.	4E	.	.	.
.	.	.	.	4F	.	8bL	.
.	.	.	.	.	.	8aJ	.
=219	=219	=219	=219	=219	=219	=219	=219
1r	.	1r	.	4G	.	4g	.
.	.	.	.	2c	.	4a	.
.	.	.	.	.	.	4e	.
.	.	.	.	4d	.	4f	.
!!LO:LB:g=original
=220	=220	=220	=220	=220	=220	=220	=220
4C	Sus-	1r	.	4e	.	4g	.
4F	.	.	.	2c	-pit	4a	.
4E	.	.	.	.	.	2b	-pit
4D	.	.	.	[4d	Is-	.	.
=221	=221	=221	=221	=221	=221	=221	=221
4G	-ce-	1r	.	8dL]	.	4g	Is-
.	.	.	.	8eJ	.	.	.
4F	.	.	.	4f	.	4a	.
4E	.	.	.	4g	.	4b	.
4A	-pit	.	.	[4e	.	4cc	.
=222	=222	=222	=222	=222	=222	=222	=222
4G	.	1r	.	4e]	.	2dd	.
4F	.	.	.	4f	.	.	.
4B-i	Is-	.	.	4g	.	4g	-ra-
4A	.	.	.	4c	-ra-	4a	.
=223	=223	=223	=223	=223	=223	=223	=223
4G	.	1r	.	4d	.	4b	.
4c	.	.	.	4e	.	4cc	.
4F	.	.	.	4f	.	4dd	.
4E	.	.	.	[4g	.	[4ee	.
=224	=224	=224	=224	=224	=224	=224	=224
2C	.	1r	.	4g]	.	4ee]	.
.	.	.	.	4e	.	2cc	.
2G	.	.	.	2d	.	.	.
.	.	.	.	.	.	4b	.
=225	=225	=225	=225	=225	=225	=225	=225
4.A	-ra-	1r	.	1c	-el	2cc	-el
8B	.	.	.	.	.	.	.
2c	.	.	.	.	.	2r	.
!!LO:PB:g=original
=226	=226	=226	=226	=226	=226	=226	=226
2F	-el	1r	.	2r	.	2cc	pu-
2r	.	.	.	2f	pu-	4a	.
.	.	.	.	.	.	[4dd	-e-
=227	=227	=227	=227	=227	=227	=227	=227
1r	.	1r	.	4d	.	8ddL]	.
.	.	.	.	.	.	8ccJ	.
*	*	*	*	*col	*	*	*
.	.	.	.	4.g	-e-	4dd	.
.	.	.	.	.	.	4b	.
.	.	.	.	8f	.	.	.
*	*	*	*	*Xcol	*	*	*
.	.	.	.	4g	.	4g	-rum,
=228	=228	=228	=228	=228	=228	=228	=228
4.A	pu-	1r	.	4e	.	1r	.
.	.	.	.	2c	-rum,	.	.
8G	.	.	.	.	.	.	.
4A	.	.	.	.	.	.	.
*	*	*	*	*	*edit	*	*
*	*	*	*	*col	*	*	*
4F	-e-	.	.	[4d	pu-	.	.
=229	=229	=229	=229	=229	=229	=229	=229
2D	-rum	1r	.	8dL]	.	2r	.
.	.	.	.	8cJ	.	.	.
*	*	*	*	*Xcol	*	*	*
.	.	.	.	4d	.	.	.
*	*	*	*	*	*	*	*edit
2r	.	.	.	4B	-e-	4.g	pu-
.	.	.	.	[4G	-rum	.	.
.	.	.	.	.	.	8f	.
=230	=230	=230	=230	=230	=230	=230	=230
1r	.	1r	.	4G]	.	4g	-e-
*	*	*	*	*	*Xedit	*	*
.	.	.	.	4.c	su-	4e	.
.	.	.	.	.	.	4c	-rum
.	.	.	.	8dL	.	.	.
.	.	.	.	8e	.	4r	.
.	.	.	.	8fJ	.	.	.
=231	=231	=231	=231	=231	=231	=231	=231
*	*	*	*	*	*	*	*Xedit
4r	.	1r	.	4g	.	4.c	su-
*col	*	*	*	*	*	*	*
4.C	su-	.	.	4a	.	.	.
.	.	.	.	.	.	8d	.
.	.	.	.	[2g	.	8eL	.
8DL	.	.	.	.	.	8f	.
*Xcol	*	*	*	*	*	*	*
8E	.	.	.	.	.	8g	.
8FJ	.	.	.	.	.	8aJ	.
!!LO:LB:g=original
=232	=232	=232	=232	=232	=232	=232	=232
4G	.	1r	.	4g]	.	4b	.
4A	.	.	.	4c	.	2cc	.
2G	-um,	.	.	2d	.	.	.
.	.	.	.	.	.	4b	.
=233	=233	=233	=233	=233	=233	=233	=233
2r	.	1r	.	1c	-um,	1cc	-um,
4r	.	.	.	.	.	.	.
[4A	re-	.	.	.	.	.	.
=234	=234	=234	=234	=234	=234	=234	=234
4A]	.	1r	.	2r	.	4r	.
4F	-cor-	.	.	.	.	2dd	re-
2G	-da-	.	.	2g	re-	.	.
.	.	.	.	.	.	4b	-cor-
=235	=235	=235	=235	=235	=235	=235	=235
4C	-tus	1r	.	4e	-cor-	2cc	-da-
4r	.	.	.	2f	-da-	.	.
2r	.	.	.	.	.	4a	-tus
.	.	.	.	4d	-tus	4dd	mi-
=236	=236	=236	=236	=236	=236	=236	=236
1r	.	1r	.	4g	mi-	4dd	-se-
.	.	.	.	4g	-se-	4b	.
.	.	.	.	4e	-ri-	2cc	-ri-
.	.	.	.	[4f	-cor-	.	.
=237	=237	=237	=237	=237	=237	=237	=237
2r	.	1r	.	4f]	.	4a	-cor-
.	.	.	.	4d	-di-	4a	-di-
2G	su-	.	.	2d	-e	2b	-e
!!LO:LB:g=original
=238	=238	=238	=238	=238	=238	=238	=238
*	*	*	*	*	*	*col	*
*	*	*	*	*col	*	*	*
*col	*	*	*	*	*	*	*
3C	.	1r	.	3e	su-	3cc	su-
6D	.	.	.	6d	.	6b	.
3E	.	.	.	6.c	.	6cc	.
.	.	.	.	.	.	6g	.
.	.	.	.	12B	.	.	.
6F	.	.	.	6A	.	6a	.
=239	=239	=239	=239	=239	=239	=239	=239
6G	.	1r	.	3G	.	3b	.
6E	.	.	.	.	.	.	.
6F	.	.	.	6A	.	6a	.
3G	.	.	.	6.B	.	3dd	.
.	.	.	.	12c	.	.	.
6C	.	.	.	6e	.	6cc	.
=240	=240	=240	=240	=240	=240	=240	=240
!!LO:TUP:a:r=2
3.G	.	1r	.	3d	.	6.b	.
.	.	.	.	.	.	12a	.
.	.	.	.	6B	.	6g	.
!!LO:TUP:a:r=2
6C	.	.	.	6c	.	3g	.
3D	.	.	.	3A	.	.	.
*Xcol	*	*	*	*Xcol	*	*	*
.	.	.	.	.	.	6f#i	.
*	*	*	*	*	*	*Xcol	*
=241	=241	=241	=241	=241	=241	=241	=241
1G	-e.	1r	.	1G	-e.	1g	-e.
!!LO:LB:g=original
=242||	=242||	=242||	=242||	=242||	=242||	=242||	=242||
*M2/2	*	*M2/2	*	*M2/2	*	*M2/2	*
*met(C|)	*	*met(C|)	*	*met(C|)	*	*met(C|)	*
1G	Sic-	[1G	Sic-	1G	Sic-	[1g	Sic-
=243	=243	=243	=243	=243	=243	=243	=243
*lig	*	*	*	*lig	*	*	*
1E	.	1G]	.	2B	.	1g]	.
.	.	.	.	2c	.	.	.
*	*	*	*	*Xlig	*	*	*
=244	=244	=244	=244	=244	=244	=244	=244
1D	.	1A	-ut	1d	-ut	1f	-ut
*Xlig	*	*	*	*	*	*	*
=245	=245	=245	=245	=245	=245	=245	=245
*	*	*lig	*	*	*	*	*
1E	-ut	1G	lo-	2B	lo-	1g	.
.	.	.	.	[2e	-cu-	.	.
=246	=246	=246	=246	=246	=246	=246	=246
*	*	*	*	*	*	*lig	*
2C	lo-	1c	.	2e]	.	2g	lo-
2F	.	.	.	2f	.	2a	.
*	*	*	*	*	*	*Xlig	*
*	*	*Xlig	*	*	*	*	*
=247	=247	=247	=247	=247	=247	=247	=247
*lig	*	*	*	*	*	*	*
2E	-cu-	[1c	-cu-	2g	.	2g	.
2C	.	.	.	2e	.	[2cc	-cu-
*Xlig	*	*	*	*	*	*	*
=248	=248	=248	=248	=248	=248	=248	=248
2.F	.	2c]	.	2.a	.	2cc]	.
.	.	2c	-tus	.	.	[2a	-tus
4G	.	.	.	4g	.	.	.
=249	=249	=249	=249	=249	=249	=249	=249
2A	.	1c	est	2.e	-tus	4a]	.
.	.	.	.	.	.	4b	.
2A	-tus	.	.	.	.	2cc	.
.	.	.	.	4f	.	.	.
!!LO:LB:g=original
=250	=250	=250	=250	=250	=250	=250	=250
1G	est	1B	ad	[1g	est	1dd	est
=251	=251	=251	=251	=251	=251	=251	=251
*	*	*lig	*	*	*	*	*
1E	ad	1c	pa-	1g]	.	1ee	ad
=252	=252	=252	=252	=252	=252	=252	=252
*	*	*	*	*	*edit	*	*
*	*	*	*	*lig	*	*	*
2D	pa-	1d	.	2f	ad	2ff	pa-
2G	.	.	.	2g	.	[2dd	.
*	*	*	*	*Xlig	*	*	*
*	*	*Xlig	*	*	*	*	*
=253	=253	=253	=253	=253	=253	=253	=253
*lig	*	*	*	*	*	*	*
*	*	*col	*	*	*	*	*
2F	.	2.d	-tres	2a	pa-	4dd]	.
.	.	.	.	.	.	4cc	.
2G	.	.	.	4g	-tres,	2b	.
*	*	*	*	*	*Xedit	*	*
.	.	4e	.	4G	ad	.	.
*	*	*Xcol	*	*	*	*	*
*Xlig	*	*	*	*	*	*	*
=254	=254	=254	=254	=254	=254	=254	=254
*lig	*	*	*	*	*	*	*
2D	-tres	2f	.	4.A	pa-	2a	.
.	.	.	.	8B	.	.	.
*	*	*	*edit	*	*	*	*
2E	.	[2g	no-	2c	.	2g	.
=255	=255	=255	=255	=255	=255	=255	=255
1D	.	2g]	.	1d	-tres	1a	-tres
.	.	2f#i	.	.	.	.	.
*Xlig	*	*	*	*	*	*	*
!!LO:PB:g=original
=256	=256	=256	=256	=256	=256	=256	=256
2r	.	[1g	-stros,	2.G	no-	2g	no-
[2G	no-	.	.	.	.	[2b	.
.	.	.	.	4A	.	.	.
=257	=257	=257	=257	=257	=257	=257	=257
*	*	*	*	*lig	*	*	*
2G]	.	1g]	.	2B	.	2b]	.
2E	.	.	.	2G	.	2cc	.
*	*	*	*	*Xlig	*	*	*
=258	=258	=258	=258	=258	=258	=258	=258
*	*	*	*Xedit	*	*	*	*
1D	.	1f	no-	2.A	.	1dd	.
.	.	.	.	4B	.	.	.
=259	=259	=259	=259	=259	=259	=259	=259
*lig	*	*	*	*	*	*	*
[1C	-stros,	2e	.	1c	.	[1ee	.
.	.	[2g	.	.	.	.	.
=260	=260	=260	=260	=260	=260	=260	=260
1C]	.	2g]	.	2G	.	1ee]	.
.	.	2c	.	2A	.	.	.
=261	=261	=261	=261	=261	=261	=261	=261
1BB-i	.	1f	.	1B-X	-stros,	1dd	.
*Xlig	*	*	*	*	*	*	*
!!LO:LB:g=original
=262	=262	=262	=262	=262	=262	=262	=262
*lig	*	*	*	*	*	*	*
*	*edit	*	*	*	*	*	*
1C	no-	2e	.	2r	.	2g	.
.	.	2c	.	[2G	A-	[2cc	.
=263	=263	=263	=263	=263	=263	=263	=263
1G	.	1d	.	2G]	.	2cc]	.
.	.	.	.	[2g	-bra-	2b	.
*Xlig	*	*	*	*	*	*	*
=264	=264	=264	=264	=264	=264	=264	=264
[1C	-stros,	[1c	-stros,	2g]	.	[1cc	-stros,
*	*	*	*	*	*edit	*	*
.	.	.	.	2e	-ham,	.	.
=265	=265	=265	=265	=265	=265	=265	=265
1C]	.	1c]	.	2.e	A-	1cc]	.
.	.	.	.	4d	.	.	.
=266	=266	=266	=266	=266	=266	=266	=266
*	*Xedit	*	*	*	*	*	*
2C	A-	1r	.	4c	.	1r	.
.	.	.	.	8BL	.	.	.
.	.	.	.	8AJ	.	.	.
2E	.	.	.	4G	.	.	.
.	.	.	.	4c	.	.	.
=267	=267	=267	=267	=267	=267	=267	=267
2F	.	1r	.	4A	.	1r	.
.	.	.	.	4d	.	.	.
[2G	-bra-	.	.	4B	.	.	.
.	.	.	.	[4e	.	.	.
!!LO:LB:g=original
=268	=268	=268	=268	=268	=268	=268	=268
4G]	.	1r	.	4e]	.	1r	.
4A	.	.	.	8dL	.	.	.
.	.	.	.	8cJ	.	.	.
2B	.	.	.	2d	-bra-	.	.
=269	=269	=269	=269	=269	=269	=269	=269
*	*	*	*	*	*Xedit	*	*
1c	-ham	2c	A-	1e	-ham	1g	A-
*	*	*lig	*	*	*	*	*
.	.	2e	.	.	.	.	.
=270	=270	=270	=270	=270	=270	=270	=270
*	*	*	*	*	*	*lig	*
2A	et	2f	.	2c	et	2a	.
*	*	*Xlig	*	*	*	*	*
2G	.	[2g	-bra-	2d	.	2b	.
*	*	*	*	*	*	*Xlig	*
=271	=271	=271	=271	=271	=271	=271	=271
1c	se-	2g]	.	2.e	se-	2g	.
.	.	2e	.	.	.	[2cc	-bra-
.	.	.	.	8fL	.	.	.
.	.	.	.	8gJ	.	.	.
=272	=272	=272	=272	=272	=272	=272	=272
*	*	*lig	*	*	*	*	*
2F	-mi-	2f	-ham	2a	.	2cc]	.
2G	-ni	2d	.	[2g	.	2b	.
*	*	*Xlig	*	*	*	*	*
=273	=273	=273	=273	=273	=273	=273	=273
*	*	*	*	*	*	*lig	*
1A	e-	1r	.	2g]	.	2cc	-ham
.	.	.	.	2f#i	-mi-	2a	.
*	*	*	*	*	*	*Xlig	*
!!LO:LB:g=original
=274	=274	=274	=274	=274	=274	=274	=274
*	*	*	*	*	*	*lig	*
2G	-ius,	4.B	et	1g	-ni	2b	.
.	.	8c	.	.	.	.	.
*	*edit	*	*	*	*	*	*
[2G	et	4e	.	.	.	2g	.
.	.	[4d	se-	.	.	.	.
*	*	*	*	*	*	*Xlig	*
=275	=275	=275	=275	=275	=275	=275	=275
2G]	.	4d]	.	1r	.	1r	.
.	.	4B	.	.	.	.	.
2F#i	.	2A	-mi-	.	.	.	.
=276	=276	=276	=276	=276	=276	=276	=276
2G	se-	2G	-ni	2d	e-	4.b	et
.	.	.	.	.	.	8cc	.
4C	.	[2g	e-	4c	.	4ee	.
[4G	-mi-	.	.	[4B	.	[4dd	se-
=277	=277	=277	=277	=277	=277	=277	=277
4G]	.	2g]	.	4B]	.	4dd]	.
4G	-ni	.	.	4G	.	8ccL	.
.	.	.	.	.	.	8bJ	.
2D	e-	2f#i	.	2d	.	2a	-mi-
=278	=278	=278	=278	=278	=278	=278	=278
2G	-ius	2g	-ius	1d	-ius	2g	-ni
*lig	*	*	*	*	*	*	*
*	*Xedit	*	*	*	*	*	*
2D	in	2f	in	.	.	2r	.
=279	=279	=279	=279	=279	=279	=279	=279
2A	.	2e	.	1r	.	2cc	e-
*Xlig	*	*	*	*	*	*	*
4r	.	4d	.	.	.	2b	.
4G	se-	4g	se-	.	.	.	.
!!LO:PB:g=original
=280	=280	=280	=280	=280	=280	=280	=280
4d	.	4f	.	2r	.	4a	-ius
4B	.	4d	.	.	.	4dd	in
2A	.	4e	.	2c	in	4cc	.
.	.	4f	.	.	.	4a	.
=281	=281	=281	=281	=281	=281	=281	=281
*lig	*	*	*	*lig	*	*	*
1G	.	4.g	.	2d	se-	4.b	se-
.	.	8f	.	.	.	8cc	.
.	.	4.d	.	2B	.	4.dd	.
.	.	8e	.	.	.	8cc	.
*	*	*	*	*Xlig	*	*	*
=282	=282	=282	=282	=282	=282	=282	=282
*	*	*	*	*lig	*	*	*
1F	.	4.f	.	2c	.	4.a	.
.	.	8e	.	.	.	8b	.
.	.	4.c	.	2A	.	4.cc	.
*	*	*	*	*Xlig	*	*	*
.	.	8d	.	.	.	8b	.
*Xlig	*	*	*	*	*	*	*
=283	=283	=283	=283	=283	=283	=283	=283
4E	.	2e	.	4B	.	4g	.
4C	.	.	.	4c	.	4.cc	.
2F	.	4c	.	2A	.	.	.
.	.	.	.	.	.	8b	.
.	.	4d	.	.	.	4a	.
=284	=284	=284	=284	=284	=284	=284	=284
4G	.	4B	.	4d	.	4b	.
4E	.	4c	.	4c	.	2g	-cu-
2D	-cu-	2A	-cu-	2d	-cu-	.	.
.	.	.	.	.	.	4f#i	.
=285	=285	=285	=285	=285	=285	=285	=285
1G	-la.	1G	-la.	1d	-la.	1g	-la.
!!LO:LB:g=original
=286||	=286||	=286||	=286||	=286||	=286||	=286||	=286||
*M2/2	*	*M2/2	*	*M2/2	*	*M2/2	*
*met(C|)	*	*met(C|)	*	*met(C|)	*	*met(C|)	*
1G	Glo-	1r	.	2.g	Glo-	1r	.
.	.	.	.	8fL	.	.	.
.	.	.	.	8eJ	.	.	.
=287	=287	=287	=287	=287	=287	=287	=287
1A	-ri-	1r	.	4f	.	1r	.
.	.	.	.	2e	.	.	.
.	.	.	.	8dL	.	.	.
.	.	.	.	8cJ	.	.	.
=288	=288	=288	=288	=288	=288	=288	=288
2.G	-a	1g	Glo-	2.B	.	1g	Glo-
8FL	.	.	.	4c	.	.	.
8EJ	.	.	.	.	.	.	.
=289	=289	=289	=289	=289	=289	=289	=289
*	*	*lig	*	*	*	*	*
2D	.	2f	-ri-	2d	-ri-	2a	-ri-
*	*	*	*	*	*	*lig	*
2r	.	2e	.	4G	-a,	[2g	-a
*	*	*	*	*	*edit	*	*
.	.	.	.	[4g	glo-	.	.
*	*	*Xlig	*	*	*	*	*
=290	=290	=290	=290	=290	=290	=290	=290
*lig	*	*lig	*	*	*	*	*
2E	pa-	1c	-a	4g]	.	2g]	.
.	.	.	.	4g	-ri-	.	.
2C	.	.	.	2g	-a	[2cc	.
=291	=291	=291	=291	=291	=291	=291	=291
1G	.	1d	.	2r	.	2cc]	.
*	*	*	*	*	*	*Xlig	*
*	*	*	*	*	*Xedit	*	*
.	.	.	.	2g	pa-	2b	.
*Xlig	*	*Xlig	*	*	*	*	*
!!LO:LB:g=original
=292	=292	=292	=292	=292	=292	=292	=292
4.A	.	2.c	pa-	2.e	.	4cc	pa-
.	.	.	.	.	.	2ee	.
8B	.	.	.	.	.	.	.
2c	.	.	.	.	.	.	.
.	.	8BL	.	4f	.	8ddL	.
.	.	8AJ	.	.	.	8ccJ	.
=293	=293	=293	=293	=293	=293	=293	=293
*	*	*	*edit	*	*edit	*	*
2d	.	1G	-tri,	2g	-tri,	2b	.
2B	.	.	.	4r	.	4g	.
*	*	*	*	*col	*	*	*
.	.	.	.	[4G	pa-	[4b	.
=294	=294	=294	=294	=294	=294	=294	=294
*	*edit	*	*	*	*	*	*
1G	-tri,	1g	pa-	8GL]	.	4b]	.
.	.	.	.	8AJ	.	.	.
*	*	*	*	*Xcol	*	*	*
.	.	.	.	4.B	.	2dd	.
.	.	.	.	8c	.	.	.
.	.	.	.	[4d	.	8ccL	.
.	.	.	.	.	.	8bJ	.
=295	=295	=295	=295	=295	=295	=295	=295
*lig	*	*lig	*	*	*	*	*
2A	pa-	2f	.	4d]	.	2a	.
.	.	.	.	4c	.	.	.
2G	.	2g	.	4.d	.	2b	.
.	.	.	.	8e	.	.	.
*	*	*Xlig	*	*	*	*	*
=296	=296	=296	=296	=296	=296	=296	=296
*	*	*	*	*	*	*	*edit
*	*	*lig	*	*	*	*	*
1F	.	1a	-tri,	1f	-tri,	1cc	-tri,
*Xlig	*	*	*	*	*	*	*
!!LO:LB:g=original
=297	=297	=297	=297	=297	=297	=297	=297
4G	.	[1g	.	1r	.	2b	pa-
4F	.	.	.	.	.	.	.
4E	.	.	.	.	.	[2ee	.
4D	.	.	.	.	.	.	.
=298	=298	=298	=298	=298	=298	=298	=298
*lig	*	*	*	*	*	*	*
2C	.	1g]	.	4.e	pa-	4ee]	.
*	*	*Xlig	*	*	*	*	*
.	.	.	.	.	.	4dd	.
.	.	.	.	8f	.	.	.
2E	.	.	.	2g	.	4b	.
.	.	.	.	.	.	4cc	.
*Xlig	*	*	*	*	*	*	*
=299	=299	=299	=299	=299	=299	=299	=299
*lig	*	*	*	*	*	*	*
2D	.	2f	pa-	1a	.	2dd	.
*	*	*	*	*	*	*lig	*
2A	.	2e	.	.	.	2cc	.
*Xlig	*	*	*	*	*	*	*
=300	=300	=300	=300	=300	=300	=300	=300
*	*	*	*	*lig	*	*	*
2B-i	.	2d	.	2f	.	2dd	.
*	*	*	*	*	*	*Xlig	*
2G	.	[2g	.	2g	.	2b	.
*	*	*	*	*Xlig	*	*	*
=301	=301	=301	=301	=301	=301	=301	=301
*	*	*	*	*	*	*lig	*
1A	-tri,	4g]	.	1c	-tri,	2a	.
.	.	4e	.	.	.	.	.
.	.	2f#i	.	.	.	2cc	.
*	*	*	*	*	*	*Xlig	*
=302	=302	=302	=302	=302	=302	=302	=302
4.G	pa-	[1g	-tri,	2d	pa-	4.b	.
8A	.	.	.	.	.	8cc	.
4B	.	.	.	4G	.	4dd	.
4c	.	.	.	[4g	.	4ee	.
!!LO:PB:g=original
=303	=303	=303	=303	=303	=303	=303	=303
*	*	*col	*	*	*	*	*
4B	.	2.g]	.	4g]	.	4dd	.
2c	.	.	.	4.e	.	2ee	.
.	.	.	.	8f	.	.	.
*	*	*	*	*	*Xedit	*	*
4C	.	8fL	.	[4g	-tri,	8ddL	.
.	.	8eJ	.	.	.	8ccJ	.
*	*	*Xcol	*	*	*	*	*
=304	=304	=304	=304	=304	=304	=304	=304
2G	.	2d	.	2.g]	.	4.b	.
.	.	.	.	.	.	8cc	.
4C	.	4c	pa-	.	.	4ee	.
4G	.	4B	.	[4g	et	[4dd	.
=305	=305	=305	=305	=305	=305	=305	=305
*lig	*	*	*	*	*	*	*
2A	.	2c	.	4g]	.	4dd]	.
.	.	.	.	4f	.	2cc	.
2G	.	2d	.	2g	.	.	.
.	.	.	.	.	.	4b	.
*Xlig	*	*	*	*	*	*	*
=306	=306	=306	=306	=306	=306	=306	=306
*	*Xedit	*	*Xedit	*	*	*	*Xedit
[1A	-tri,	[1c	-tri,	4.e	fi-	1cc	-tri,
.	.	.	.	8f	.	.	.
.	.	.	.	4e	.	.	.
.	.	.	.	[4a	.	.	.
=307	=307	=307	=307	=307	=307	=307	=307
1A]	.	1c]	.	4a]	.	2r	.
.	.	.	.	2g	-li-	.	.
.	.	.	.	.	.	2cc	et
.	.	.	.	4f#i	.	.	.
=308	=308	=308	=308	=308	=308	=308	=308
2G	et	4.d	et	2g	-o,	2b	fi-
.	.	8e	.	.	.	.	.
*	*	*	*	*	*edit	*	*
2F	.	2f	.	[2a	fi-	4.a	.
.	.	.	.	.	.	8g	.
!!LO:LB:g=original
=309	=309	=309	=309	=309	=309	=309	=309
1A	fi-	1c	fi-	4a]	.	4f	.
.	.	.	.	4g	.	4e	.
.	.	.	.	4f	.	8cL	.
.	.	.	.	.	.	8d	.
.	.	.	.	[4e	.	8e	.
.	.	.	.	.	.	8fJ	.
=310	=310	=310	=310	=310	=310	=310	=310
4G	.	4B	.	4e]	.	4g	.
4F	.	2A	.	2d	-li-	4a	.
2E	.	.	.	.	.	4b	.
.	.	4G	.	4c#i	.	4cc	.
=311	=311	=311	=311	=311	=311	=311	=311
4.D	-li-	4A	.	2d	-o,	4.f	.
.	.	4d	.	.	.	.	.
8E	.	.	.	.	.	8g	.
4F	.	4c	.	2r	.	4a	.
4G	.	4g	.	.	.	4b	.
=312	=312	=312	=312	=312	=312	=312	=312
4A	.	4f	.	1r	.	4cc	.
4B-i	.	4d	.	.	.	2dd	-li-
2A	-o,	2e	-li-	.	.	.	.
.	.	.	.	.	.	4cc#i	.
=313	=313	=313	=313	=313	=313	=313	=313
*	*	*	*	*	*Xedit	*	*
4.D	et	[1d	-o,	2.A	et	1dd	-o,
8E	.	.	.	.	.	.	.
4F	.	.	.	.	.	.	.
4G	.	.	.	4B-i	.	.	.
!!LO:LB:g=original
=314	=314	=314	=314	=314	=314	=314	=314
4F	spi-	1d]	.	4A	spi-	4r	.
2G	ri-	.	.	2B-i	ri-	4.d	et
.	.	.	.	.	.	8eL	.
8FL	.	.	.	8AL	.	8f	.
8EJ	.	.	.	8GJ	.	8gJ	.
=315	=315	=315	=315	=315	=315	=315	=315
4D	.	2r	.	4F	.	4a	.
4E	.	.	.	4G	.	2g	spi-
2D	-tu-	2d	et	2A	-tu-	.	.
.	.	.	.	.	.	4f#i	.
=316	=316	=316	=316	=316	=316	=316	=316
2G	-i	2.d	spi-	4.B	i	4g	-ri-
.	.	.	.	.	.	2b	-tu-
.	.	.	.	8c	.	.	.
2r	.	.	.	4d	.	.	.
.	.	4c	ri-	4e	.	4cc	-i
=317	=317	=317	=317	=317	=317	=317	=317
*	*	*lig	*	*	*	*	*
1r	.	2B	-tu-	4d	.	4dd	san-
*	*	*	*	*	*edit	*	*
.	.	.	.	2g	san-	4b	.
.	.	2A	.	.	.	4.cc	.
.	.	.	.	4f#i	.	.	.
.	.	.	.	.	.	8dd	.
*	*	*Xlig	*	*	*	*	*
=318	=318	=318	=318	=318	=318	=318	=318
1r	.	4G	-i	4g	.	2b	.
.	.	2g	san-	4G	.	.	.
*	*	*	*	*	*	*	*edit
.	.	.	.	2d	-cto,	2a	-cto,
.	.	4f#i	.	.	.	.	.
!!LO:LB:g=original
=319	=319	=319	=319	=319	=319	=319	=319
*	*	*	*edit	*	*	*	*
2G	san-	2.g	-cto,	1r	.	4r	.
*	*	*	*	*	*	*lig	*Xedit
.	.	.	.	.	.	2b	san-
4E	.	.	.	.	.	.	.
*lig	*	*	*	*	*	*	*
[4A	.	4e	.	.	.	[4cc	.
=320	=320	=320	=320	=320	=320	=320	=320
*	*	*lig	*	*	*Xedit	*	*
4A]	.	2f	.	4.a	san-	4cc]	.
*	*	*	*	*	*	*Xlig	*
2D	.	.	.	.	.	4.dd	.
.	.	.	.	8g	.	.	.
.	.	2d	.	8fL	.	.	.
.	.	.	.	8eJ	.	8ccL	.
*Xlig	*	*Xlig	*	*	*	*	*
[4G	.	.	.	[4d	.	8b	.
.	.	.	.	.	.	8aJ	.
=321	=321	=321	=321	=321	=321	=321	=321
4G]	.	4B	san-	4d]	.	4g	.
4.F	.	4c	.	4.f	.	4.a	.
.	.	2A	.	.	.	.	.
8E	.	.	.	8g	.	8bL	.
4F	.	.	.	4a	.	8cc	.
.	.	.	.	.	.	8ddJ	.
=322	=322	=322	=322	=322	=322	=322	=322
*lig	*	*	*	*	*	*	*
2G	.	4.G	.	2d	-cto,	4b	.
.	.	.	.	.	.	2dd	.
.	.	8A	.	.	.	.	.
2D	.	8BL	.	4r	.	.	.
.	.	8cJ	.	.	.	.	.
*	*	*	*	*	*edit	*	*
.	.	4d	.	4d	san-	[4b	.
*Xlig	*	*	*	*	*	*	*
=323	=323	=323	=323	=323	=323	=323	=323
*lig	*	*lig	*	*	*	*	*
2E	.	2G	.	4B	.	8bL]	.
.	.	.	.	.	.	8aJ	.
.	.	.	.	4c	.	2g	.
2D	.	2A	.	2d	.	.	.
.	.	.	.	.	.	4f#i	.
*Xlig	*	*Xlig	*	*	*	*	*
=324	=324	=324	=324	=324	=324	=324	=324
*	*	*	*Xedit	*	*	*	*
1G	-cto.	1G	-cto.	1d	-cto.	1g	-cto.
!!LO:LB:g=original
=325||	=325||	=325||	=325||	=325||	=325||	=325||	=325||
*M3/2	*	*M3/2	*	*M3/2	*	*M3/2	*
*met(O)	*	*met(O)	*	*met(O)	*	*met(O)	*
*	*	*	*	*	*Xedit	*	*
*	*	*	*	*col	*	*	*
*col	*	*	*	*	*	*	*
[1.G	Sic-	1.r	.	1.g	Sic-	1.r	.
.	.	.	.	.	.	.	.
=326	=326	=326	=326	=326	=326	=326	=326
2G]	.	1.r	.	2e	.	1.r	.
1A	-ut	.	.	1f	-ut	.	.
*	*	*	*	*Xcol	*	*	*
=327	=327	=327	=327	=327	=327	=327	=327
*lig	*	*	*	*	*	*	*
*	*	*	*	*	*	*col	*
1G	e-	[1.G	Sic-	2g	e-	1.g	Sic-
.	.	.	.	2G	.	.	.
[2E	.	.	.	2B	.	.	.
=328	=328	=328	=328	=328	=328	=328	=328
*	*	*	*	*lig	*	*	*
2E]	.	2G]	.	2c	.	2e	.
*Xlig	*	*	*	*	*	*	*
1D	.	1A	-ut	1d	.	1f	-ut
*Xcol	*	*	*	*	*	*Xcol	*
*	*	*	*	*Xlig	*	*	*
=329	=329	=329	=329	=329	=329	=329	=329
*	*	*lig	*	*	*	*lig	*
2.E	.	1.G	e-	1B	-rat	1.g	e-
4F	.	.	.	.	.	.	.
2G	.	.	.	2r	.	.	.
=330	=330	=330	=330	=330	=330	=330	=330
1F	.	1.c	.	2.A	in	1a	.
*	*	*Xlig	*	*	*	*Xlig	*
.	.	.	.	4B	.	.	.
2E	.	.	.	4c	.	2g	.
.	.	.	.	4d	.	.	.
!!LO:LB:g=original
=331	=331	=331	=331	=331	=331	=331	=331
1C	-rat	1c	-rat	1e	.	2.cc	.
.	.	.	.	.	.	4b	.
*	*edit	*	*edit	*	*	*	*
2F	in	2d	in	2A	.	2a	.
=332	=332	=332	=332	=332	=332	=332	=332
*lig	*	*	*	*lig	*	*	*
*	*	*	*	*col	*	*	*
2E	prin-	2e	.	1B	prin-	2.g	.
2.G	.	2.d	prin-	.	.	.	.
.	.	.	.	.	.	4a	.
.	.	.	.	[2G	.	2b	.
*Xlig	*	*	*	*	*	*	*
4F	.	4c	.	.	.	.	.
=333	=333	=333	=333	=333	=333	=333	=333
*	*	*	*	*	*	*lig	*
2E	-ci-	1c	-ci-	2G]	.	2cc	.
*	*	*	*	*Xlig	*	*	*
1D	-pi-	.	.	2A	-ci-	2.f	.
.	.	2B	-pi-	2F	.	.	.
*	*	*	*	*Xcol	*	*	*
*	*	*	*	*	*	*Xlig	*
.	.	.	.	.	.	4d	.
=334	=334	=334	=334	=334	=334	=334	=334
1C	-o,	1c	-o,	2.G	-pi-	2e	.
.	.	.	.	.	.	2.g	.
.	.	.	.	4A	.	.	.
2r	.	2r	.	2B	.	.	.
.	.	.	.	.	.	4f	.
=335	=335	=335	=335	=335	=335	=335	=335
1.r	.	1.r	.	1c	-o,	2e	.
.	.	.	.	.	.	1d	-rat
*	*	*	*	*	*edit	*	*
.	.	.	.	2f	in	.	.
=336	=336	=336	=336	=336	=336	=336	=336
*	*	*	*	*lig	*	*lig	*
*	*Xedit	*	*	*	*	*	*
2c	in	1.r	.	2e	prin-	2cc	in
2G	.	.	.	2.g	.	2b	.
*	*	*	*	*Xlig	*	*Xlig	*
2B	.	.	.	.	.	2dd	prin-
.	.	.	.	4f	.	.	.
!!LO:LB:g=original
=337	=337	=337	=337	=337	=337	=337	=337
2c	.	2r	.	2e	.	1cc	-ci-
1G	prin-	2r	.	1d	.	.	.
*	*	*	*Xedit	*	*	*	*
.	.	2d	in	.	.	2b	.
=338	=338	=338	=338	=338	=338	=338	=338
*lig	*	*lig	*	*lig	*	*	*
2C	-ci-	2e	prin-	2c	-ci-	2ee	.
2G	.	2.g	.	2G	.	2.dd	.
*Xlig	*	*Xlig	*	*Xlig	*	*	*
2E	-pi-	.	.	2B	.	.	.
.	.	4f	.	.	.	4cc	.
=339	=339	=339	=339	=339	=339	=339	=339
*	*	*lig	*	*	*	*	*
2C	-o	2e	-ci-	2c	-pi-	1cc	-pi-
2r	.	1d	-pi-	1G	-o,	.	.
2r	.	.	.	.	.	2b	.
*	*	*Xlig	*	*	*	*	*
=340	=340	=340	=340	=340	=340	=340	=340
*	*edit	*	*	*	*Xedit	*	*
[1.C	et,	1c	-o	2g	et	1.cc	-o
.	.	.	.	2g	nunc	.	.
.	.	2r	.	2g	et	.	.
=341	=341	=341	=341	=341	=341	=341	=341
1.C]	.	2g	et	1e	sem-	1.r	.
.	.	2g	nunc	.	.	.	.
.	.	2g	et	2c	.	.	.
=342	=342	=342	=342	=342	=342	=342	=342
1.r	.	1e	sem-	1c	-per,	1.r	.
*	*	*	*edit	*	*	*	*
.	.	2c	-per,	2r	.	.	.
!!LO:LB:g=original
=343	=343	=343	=343	=343	=343	=343	=343
*	*Xedit	*	*	*	*edit	*	*
2c	et	1.e	et	2.g	et	1.r	.
2c	nunc	.	.	.	.	.	.
.	.	.	.	4f	.	.	.
2c	et	.	.	4e	.	.	.
.	.	.	.	4d	.	.	.
=344	=344	=344	=344	=344	=344	=344	=344
*	*	*	*	*col	*	*	*
*	*	*col	*	*	*	*	*
1A	sem-	1e	nunc	[1.c	nunc	2cc	et
.	.	.	.	.	.	2cc	nunc
2F	-per,	[2f	et	.	.	2cc	et
=345	=345	=345	=345	=345	=345	=345	=345
*	*edit	*	*	*	*	*	*
2.F	et	4f]	.	2c]	.	2.a	sem-
.	.	4e	.	.	.	.	.
*	*	*lig	*	*lig	*	*	*
.	.	2c	sem-	2A	.	.	.
4E	.	.	.	.	.	4g	.
2D	.	2d	.	2B	.	2f	.
*	*	*Xcol	*	*	*	*	*
*	*	*Xlig	*	*Xlig	*	*	*
=346	=346	=346	=346	=346	=346	=346	=346
*	*	*	*	*	*	*	*edit
2.C	nunc	1.G	-per,	1c	.	1.e	-per,
4D	.	.	.	.	.	.	.
*	*	*	*	*lig	*	*	*
4E	.	.	.	[2g	et	.	.
4F	.	.	.	.	.	.	.
=347	=347	=347	=347	=347	=347	=347	=347
2.G	.	1.G	et	2g]	.	1b	et
.	.	.	.	1d	.	.	.
*	*	*	*	*Xcol	*	*	*
4A	.	.	.	.	.	.	.
2B	.	.	.	.	.	2b	nunc
*	*	*	*	*Xlig	*	*	*
=348	=348	=348	=348	=348	=348	=348	=348
2G	.	1g	nunc	2d	sem-	2dd	et
1C	et	.	.	2.c	.	2.ee	sem-
.	.	2g	et	.	.	.	.
.	.	.	.	4d	.	4dd	.
!!LO:PB:g=original
=349	=349	=349	=349	=349	=349	=349	=349
*	*	*lig	*	*	*	*	*
2C	sem-	2e	sem-	2e	.	4cc	.
.	.	.	.	.	.	4b	.
*col	*	*	*	*	*	*	*
1D	.	1f	.	2.d	.	2a	.
*Xcol	*	*	*	*	*	*	*
.	.	.	.	.	.	[2dd	.
.	.	.	.	4c	.	.	.
*	*	*Xlig	*	*	*	*	*
=350	=350	=350	=350	=350	=350	=350	=350
1G	-per,	1.g	.	4B	.	4dd]	.
.	.	.	.	4A	.	4cc	.
.	.	.	.	1G	-per,	4b	.
.	.	.	.	.	.	4a	.
2E	.	.	.	.	.	2g	.
=351	=351	=351	=351	=351	=351	=351	=351
*lig	*	*lig	*	*	*	*	*
2C	sem-	2e	.	1.g	sem-	1cc	.
1G	.	1d	.	.	.	.	.
.	.	.	.	.	.	2b	.
*Xlig	*	*Xlig	*	*	*	*	*
=352	=352	=352	=352	=352	=352	=352	=352
*	*	*	*Xedit	*	*	*	*Xedit
1.C	-per	1.c	-per	1e	.	1.cc	-per
.	.	.	.	2c	-per	.	.
=353	=353	=353	=353	=353	=353	=353	=353
*	*Xedit	*	*	*	*	*	*
1E	et	1.r	.	1.r	.	1.r	.
2F	in	.	.	.	.	.	.
=354	=354	=354	=354	=354	=354	=354	=354
*	*	*	*	*	*Xedit	*	*
1G	se-	1.r	.	1B	et	1.r	.
2E	.	.	.	2c	in	.	.
!!LO:LB:g=original
=355	=355	=355	=355	=355	=355	=355	=355
2D	.	1.r	.	1d	se-	1.r	.
1G	.	.	.	.	.	.	.
.	.	.	.	2B	.	.	.
=356	=356	=356	=356	=356	=356	=356	=356
*lig	*	*	*	*lig	*	*	*
2F	.	1.r	.	2A	.	1.r	.
2D	.	.	.	2.d	.	.	.
*Xlig	*	*	*	*Xlig	*	*	*
2G	.	.	.	.	.	.	.
.	.	.	.	4c	.	.	.
=357	=357	=357	=357	=357	=357	=357	=357
*lig	*	*	*	*	*	*	*
2E	-cu-	1.r	.	1c	-cu-	1.r	.
1D	.	.	.	.	.	.	.
.	.	.	.	2B	.	.	.
*Xlig	*	*	*	*	*	*	*
=358	=358	=358	=358	=358	=358	=358	=358
1C	-la	1e	et	1c	-la	1.r	.
2r	.	2f	in	2r	.	.	.
=359	=359	=359	=359	=359	=359	=359	=359
1.r	.	1g	se-	1.r	.	1b	et
.	.	2e	.	.	.	2cc	in
=360	=360	=360	=360	=360	=360	=360	=360
1.r	.	2d	.	1.r	.	1dd	se-
.	.	1g	.	.	.	.	.
.	.	.	.	.	.	2b	.
!!LO:LB:g=original
=361	=361	=361	=361	=361	=361	=361	=361
*	*	*lig	*	*	*	*lig	*
1.r	.	2f	.	1.r	.	2a	.
.	.	1d	.	.	.	2.dd	.
*	*	*Xlig	*	*	*	*Xlig	*
.	.	.	.	.	.	4cc	.
=362	=362	=362	=362	=362	=362	=362	=362
*lig	*	*	*	*	*	*lig	*
2G	se-	1g	-cu-	1d	se-	2b	-cu-
1D	.	.	.	.	.	1a	.
.	.	2f#i	.	2d	-cu-	.	.
*Xlig	*	*	*	*	*	*Xlig	*
=363	=363	=363	=363	=363	=363	=363	=363
*	*	*	*	*lig	*	*	*
*	*	*	*	*	*	*col	*
*	*	*	*	*col	*	*	*
*col	*	*	*	*	*	*	*
1G	.	[1.g	-la	1B	-lo-	1g	-la
*lig	*	*	*	*	*	*	*
[2E	-cu-	.	.	[2G	.	2r	.
=364	=364	=364	=364	=364	=364	=364	=364
2E]	.	2g]	.	2G]	.	2r	.
*	*	*	*	*Xlig	*	*	*
1C	.	1e	se-	1c	.	1g	se-
*Xcol	*	*	*	*Xcol	*	*Xcol	*
*Xlig	*	*	*	*	*	*	*
=365	=365	=365	=365	=365	=365	=365	=365
*	*	*	*	*lig	*	*	*
1G	-lo-	1d	-cu-	2B	.	1b	-cu-
.	.	.	.	1G	.	.	.
2E	.	2e	.	.	.	2cc	.
*	*	*	*	*Xlig	*	*	*
=366	=366	=366	=366	=366	=366	=366	=366
1.D	-rum.	1f	-lo-	1.A	-rum.	2.dd	.
.	.	.	.	.	.	4cc	.
.	.	2d	.	.	.	2dd	.
!!LO:LB:g=original
=367	=367	=367	=367	=367	=367	=367	=367
1A	A-	1c	.	1.r	.	1ee	.
2B	.	2d	.	.	.	2dd	.
=368	=368	=368	=368	=368	=368	=368	=368
*	*	*lig	*	*	*	*	*
2d	.	2f	-rum.	1a	A-	1dd	-lo-
*	*edit	*	*	*	*	*	*
1A	-men,	1e	.	.	.	.	.
*	*	*	*	*	*edit	*	*
.	.	.	.	2a	-men,	2cc	.
*	*	*Xlig	*	*	*	*	*
=369	=369	=369	=369	=369	=369	=369	=369
*	*	*	*	*col	*	*	*
2.D	a-	1d	A-	2f	a-	2b	-rum.
.	.	.	.	2d	.	2.a	A-
4E	.	.	.	.	.	.	.
2F	.	2c	.	[2A	.	.	.
.	.	.	.	.	.	4g	.
=370	=370	=370	=370	=370	=370	=370	=370
2D	.	1d	.	2A]	.	4f	.
.	.	.	.	.	.	4e	.
1G	.	.	.	2B	.	1d	.
.	.	2B	.	2d	.	.	.
*	*	*	*	*Xcol	*	*	*
=371	=371	=371	=371	=371	=371	=371	=371
2C	.	2c	.	2e	.	2.g	.
1D	.	1A	.	1d	.	.	.
.	.	.	.	.	.	4f#i	.
.	.	.	.	.	.	4f#i	.
.	.	.	.	.	.	4e	.
*	*Xedit	*	*	*	*Xedit	*	*
=372	=372	=372	=372	=372	=372	=372	=372
1Gl	-men.	1Gl	-men.	1dl	-men.	1gl	-men.
==	==	==	==	==	==	==	==
*-	*-	*-	*-	*-	*-	*-	*-
!!!system-decoration: [*]
!!!YEM: 2018 American Institute of Musicology
!!!Xfilter: gasparize
!!!RDF**kern: j = editorial accidental, optional, paren up
!!!RDF**kern: i = editorial accidental
!!!RDF**kern: l = terminal breve
!!!PTL: Gaspar van Weerbeke: Collected Works. V. Settings of Liturgical Texts, Songs, and Instrumental Works
!!!PPR: American Institute of Musicology
!!!PC#: Corpus Mensurabilis Musicae 106/V
!!!PDT: 2018
!!!PED: Kolb, Paul
!!!YEC: Copyright 2018, Kolb, Paul
!!!YEM: CC-BY-NC 4.0 (https://creativecommons.org/licenses/by-nc/4.0/legalcode)
!!!EED: Zybina, Karina
!!!EEV: 2021/08/19
